;FLAVOR:RepRap
;TIME:2881
;Generated with Cura_SteamEngine 2.3.1
M190 S60
M104 S210
M109 S210
;Sliced at: {day} {date} {time}
G21        ;metric values
G90        ;absolute positioning
M107       ;start with the fan off
G28   ;move to endstops
G10   ; Retract
G29                      ;Auto Grid Leveling
G0 Z 20                ;Move to z 20
G0 X0 Y-80 F3000   ; Move to side of bed
G92 E0                  ;zero the extruded length
G1 F200 E50              ;extrude 3mm of feed stock
G92 E0                  ;zero the extruded length again
G1 F{travel_speed}
M117 Printing...
;LAYER_COUNT:2
;LAYER:0
M107
G1 F1500 E-4
G0 F4500 X52.414 Y-57.741 Z.3
;TYPE:SKIRT
G1 F1500 E0
G1 F1800 X62.906 Y-46.089 E0.86049
G1 X63.275 Y-45.582 E0.8949
G1 X71.112 Y-32.007 E1.75512
G1 X71.367 Y-31.434 E1.78954
G1 X76.214 Y-16.522 E2.65004
G1 X76.345 Y-15.909 E2.68444
G1 X77.984 Y-.316 E3.54489
G1 X77.984 Y.312 E3.57935
G1 X76.345 Y15.908 E4.43996
G1 X76.214 Y16.521 E4.47436
G1 X71.367 Y31.433 E5.33487
G1 X71.112 Y32.006 E5.36929
G1 X63.275 Y45.582 E6.22956
G1 X62.906 Y46.089 E6.26397
G1 X52.414 Y57.741 E7.12445
G1 X51.948 Y58.161 E7.15888
G1 X39.262 Y67.378 E8.01943
G1 X38.719 Y67.692 E8.05386
G1 X24.398 Y74.069 E8.91418
G1 X23.802 Y74.262 E8.94856
G1 X8.461 Y77.523 E9.80927
G1 X7.837 Y77.589 E9.84371
G1 X-7.837 Y77.589 E10.70388
G1 X-8.461 Y77.523 E10.73832
G1 X-23.802 Y74.262 E11.59903
G1 X-24.398 Y74.069 E11.63341
G1 X-38.719 Y67.692 E12.49373
G1 X-39.262 Y67.378 E12.52816
G1 X-51.948 Y58.161 E13.38871
G1 X-52.414 Y57.741 E13.42314
G1 X-62.906 Y46.089 E14.28362
G1 X-63.275 Y45.582 E14.31804
G1 X-71.112 Y32.006 E15.1783
G1 X-71.367 Y31.433 E15.21272
G1 X-76.214 Y16.521 E16.07323
G1 X-76.345 Y15.908 E16.10763
G1 X-77.984 Y.316 E16.96802
G1 X-77.984 Y-.312 E17.00248
G1 X-76.345 Y-15.909 E17.86315
G1 X-76.214 Y-16.522 E17.89755
G1 X-71.367 Y-31.434 E18.75805
G1 X-71.112 Y-32.007 E18.79247
G1 X-63.275 Y-45.582 E19.65269
G1 X-62.906 Y-46.089 E19.6871
G1 X-52.414 Y-57.741 E20.54759
G1 X-51.948 Y-58.161 E20.58202
G1 X-39.261 Y-67.379 E21.44265
G1 X-38.718 Y-67.693 E21.47707
G1 X-24.398 Y-74.069 E22.33732
G1 X-23.802 Y-74.262 E22.3717
G1 X-8.461 Y-77.523 E23.23241
G1 X-7.837 Y-77.589 E23.26685
G1 X7.837 Y-77.589 E24.12702
G1 X8.461 Y-77.523 E24.16146
G1 X23.802 Y-74.262 E25.02217
G1 X24.398 Y-74.069 E25.05655
G1 X38.718 Y-67.693 E25.9168
G1 X39.261 Y-67.379 E25.95122
G1 X51.948 Y-58.161 E26.81185
G1 X52.414 Y-57.741 E26.84628
G0 F4500 X52.117 Y-57.474
G1 F1800 X62.609 Y-45.822 E27.70677
G1 X62.929 Y-45.382 E27.73662
G1 X70.766 Y-31.807 E28.59684
G1 X70.987 Y-31.311 E28.62664
G1 X75.834 Y-16.399 E29.48715
G1 X75.947 Y-15.867 E29.517
G1 X77.586 Y-.274 E30.37744
G1 X77.586 Y.27 E30.4073
G1 X75.947 Y15.866 E31.26791
G1 X75.834 Y16.398 E31.29775
G1 X70.987 Y31.31 E32.15826
G1 X70.766 Y31.806 E32.18806
G1 X62.929 Y45.382 E33.04832
G1 X62.609 Y45.822 E33.07818
G1 X52.117 Y57.474 E33.93867
G1 X51.713 Y57.837 E33.96847
G1 X39.027 Y67.054 E34.82903
G1 X38.557 Y67.326 E34.85883
G1 X24.236 Y73.703 E35.71915
G1 X23.719 Y73.871 E35.74898
G1 X8.378 Y77.132 E36.60969
G1 X7.837 Y77.189 E36.63955
G1 X-7.837 Y77.189 E37.49973
G1 X-8.378 Y77.132 E37.52958
G1 X-23.719 Y73.871 E38.39029
G1 X-24.236 Y73.703 E38.42012
G1 X-38.557 Y67.326 E39.28045
G1 X-39.027 Y67.054 E39.31025
G1 X-51.713 Y57.837 E40.1708
G1 X-52.117 Y57.474 E40.2006
G1 X-62.609 Y45.822 E41.06109
G1 X-62.929 Y45.382 E41.09095
G1 X-70.766 Y31.806 E41.95122
G1 X-70.987 Y31.31 E41.98102
G1 X-75.834 Y16.398 E42.84152
G1 X-75.947 Y15.866 E42.87137
G1 X-77.586 Y.274 E43.73176
G1 X-77.586 Y-.27 E43.76161
G1 X-75.947 Y-15.867 E44.62228
G1 X-75.834 Y-16.399 E44.65212
G1 X-70.987 Y-31.311 E45.51263
G1 X-70.766 Y-31.807 E45.54243
G1 X-62.929 Y-45.382 E46.40265
G1 X-62.609 Y-45.822 E46.43251
G1 X-52.117 Y-57.474 E47.29299
G1 X-51.713 Y-57.837 E47.3228
G1 X-39.026 Y-67.055 E48.18343
G1 X-38.556 Y-67.327 E48.21323
G1 X-24.236 Y-73.703 E49.07348
G1 X-23.719 Y-73.871 E49.10331
G1 X-8.378 Y-77.132 E49.96402
G1 X-7.837 Y-77.189 E49.99388
G1 X7.837 Y-77.189 E50.85405
G1 X8.378 Y-77.132 E50.88391
G1 X23.719 Y-73.871 E51.74462
G1 X24.236 Y-73.703 E51.77445
G1 X38.556 Y-67.327 E52.6347
G1 X39.026 Y-67.055 E52.6645
G1 X51.713 Y-57.837 E53.52513
G1 X52.117 Y-57.474 E53.55494
G0 F4500 X51.82 Y-57.206
G1 F1800 X62.312 Y-45.554 E54.41542
G1 X62.582 Y-45.182 E54.44065
G1 X70.419 Y-31.607 E55.30087
G1 X70.606 Y-31.187 E55.3261
G1 X75.453 Y-16.275 E56.18661
G1 X75.549 Y-15.825 E56.21186
G1 X77.188 Y-.232 E57.0723
G1 X77.188 Y.228 E57.09755
G1 X75.549 Y15.824 E57.95816
G1 X75.453 Y16.274 E57.98341
G1 X70.606 Y31.186 E58.84391
G1 X70.419 Y31.606 E58.86914
G1 X62.582 Y45.182 E59.72941
G1 X62.312 Y45.554 E59.75464
G1 X51.82 Y57.206 E60.61512
G1 X51.478 Y57.514 E60.64038
G1 X38.792 Y66.731 E61.50093
G1 X38.394 Y66.961 E61.52616
G1 X24.073 Y73.338 E62.38648
G1 X23.635 Y73.48 E62.41175
G1 X8.294 Y76.741 E63.27246
G1 X7.837 Y76.789 E63.29768
G1 X-7.837 Y76.789 E64.15786
G1 X-8.294 Y76.741 E64.18307
G1 X-23.635 Y73.48 E65.04379
G1 X-24.073 Y73.338 E65.06906
G1 X-38.394 Y66.961 E65.92938
G1 X-38.792 Y66.731 E65.9546
G1 X-51.478 Y57.514 E66.81516
G1 X-51.82 Y57.206 E66.84041
G1 X-62.312 Y45.554 E67.7009
G1 X-62.582 Y45.182 E67.72613
G1 X-70.419 Y31.606 E68.58639
G1 X-70.606 Y31.186 E68.61162
G1 X-75.453 Y16.274 E69.47213
G1 X-75.549 Y15.824 E69.49738
G1 X-77.188 Y.232 E70.35777
G1 X-77.188 Y-.228 E70.38302
G1 X-75.549 Y-15.825 E71.24368
G1 X-75.453 Y-16.275 E71.26893
G1 X-70.606 Y-31.187 E72.12943
G1 X-70.419 Y-31.607 E72.15467
G1 X-62.582 Y-45.182 E73.01489
G1 X-62.312 Y-45.554 E73.04011
G1 X-51.82 Y-57.206 E73.9006
G1 X-51.478 Y-57.514 E73.92586
G1 X-38.791 Y-66.732 E74.78648
G1 X-38.393 Y-66.962 E74.81171
G1 X-24.073 Y-73.338 E75.67196
G1 X-23.635 Y-73.48 E75.69723
G1 X-8.294 Y-76.741 E76.55794
G1 X-7.837 Y-76.789 E76.58316
G1 X7.837 Y-76.789 E77.44334
G1 X8.294 Y-76.741 E77.46855
G1 X23.635 Y-73.48 E78.32927
G1 X24.073 Y-73.338 E78.35454
G1 X38.393 Y-66.962 E79.21478
G1 X38.791 Y-66.732 E79.24001
G1 X51.478 Y-57.514 E80.10064
G1 X51.82 Y-57.206 E80.1259
G0 F4500 X51.523 Y-56.938
G1 F1800 X62.015 Y-45.286 E80.98638
G1 X62.236 Y-44.982 E81.00701
G1 X70.073 Y-31.407 E81.86723
G1 X70.226 Y-31.063 E81.88789
G1 X75.073 Y-16.151 E82.7484
G1 X75.151 Y-15.783 E82.76904
G1 X76.79 Y-.19 E83.62949
G1 X76.79 Y.186 E83.65012
G1 X75.151 Y15.782 E84.51073
G1 X75.073 Y16.15 E84.53137
G1 X70.226 Y31.062 E85.39188
G1 X70.073 Y31.406 E85.41254
G1 X62.236 Y44.982 E86.27281
G1 X62.015 Y45.286 E86.29343
G1 X51.523 Y56.938 E87.15392
G1 X51.243 Y57.19 E87.17459
G1 X38.557 Y66.407 E88.03514
G1 X38.231 Y66.595 E88.0558
G1 X23.91 Y72.972 E88.91612
G1 X23.552 Y73.089 E88.93679
G1 X8.211 Y76.35 E89.7975
G1 X7.837 Y76.389 E89.81814
G1 X-7.837 Y76.389 E90.67831
G1 X-8.211 Y76.35 E90.69895
G1 X-23.552 Y73.089 E91.55966
G1 X-23.91 Y72.972 E91.58033
G1 X-38.231 Y66.595 E92.44065
G1 X-38.557 Y66.407 E92.46131
G1 X-51.243 Y57.19 E93.32186
G1 X-51.523 Y56.938 E93.34253
G1 X-62.015 Y45.286 E94.20302
G1 X-62.236 Y44.982 E94.22364
G1 X-70.073 Y31.406 E95.08391
G1 X-70.226 Y31.062 E95.10457
G1 X-75.073 Y16.15 E95.96508
G1 X-75.151 Y15.782 E95.98572
G1 X-76.79 Y.19 E96.84611
G1 X-76.79 Y-.186 E96.86675
G1 X-75.151 Y-15.783 E97.72741
G1 X-75.073 Y-16.151 E97.74805
G1 X-70.226 Y-31.063 E98.60856
G1 X-70.073 Y-31.407 E98.62922
G1 X-62.236 Y-44.982 E99.48944
G1 X-62.015 Y-45.286 E99.51007
G1 X-51.523 Y-56.938 E100.37055
G1 X-51.243 Y-57.19 E100.39123
G1 X-38.556 Y-66.408 E101.25185
G1 X-38.23 Y-66.596 E101.27251
G1 X-23.91 Y-72.972 E102.13275
G1 X-23.552 Y-73.089 E102.15342
G1 X-8.211 Y-76.35 E103.01414
G1 X-7.837 Y-76.389 E103.03477
G1 X7.837 Y-76.389 E103.89495
G1 X8.211 Y-76.35 E103.91559
G1 X23.552 Y-73.089 E104.7763
G1 X23.91 Y-72.972 E104.79697
G1 X38.23 Y-66.596 E105.65722
G1 X38.556 Y-66.408 E105.67787
G1 X51.243 Y-57.19 E106.5385
G1 X51.523 Y-56.938 E106.55917
G0 F4500 X51.225 Y-56.671
G1 F1800 X61.717 Y-45.019 E107.41966
G1 X61.889 Y-44.782 E107.43573
G1 X69.726 Y-31.207 E108.29595
G1 X69.845 Y-30.94 E108.31199
G1 X74.692 Y-16.028 E109.17249
G1 X74.753 Y-15.741 E109.1886
G1 X76.392 Y-.148 E110.04904
G1 X76.392 Y.144 E110.06507
G1 X74.753 Y15.74 E110.92568
G1 X74.692 Y16.027 E110.94178
G1 X69.845 Y30.939 E111.80228
G1 X69.726 Y31.206 E111.81833
G1 X61.889 Y44.782 E112.67859
G1 X61.717 Y45.019 E112.69466
G1 X51.225 Y56.671 E113.55515
G1 X51.008 Y56.867 E113.5712
G1 X38.322 Y66.084 E114.43175
G1 X38.068 Y66.23 E114.44783
G1 X23.747 Y72.607 E115.30815
G1 X23.469 Y72.697 E115.32418
G1 X8.128 Y75.958 E116.1849
G1 X7.837 Y75.989 E116.20096
G1 X-7.837 Y75.989 E117.06113
G1 X-8.128 Y75.958 E117.07719
G1 X-23.469 Y72.697 E117.93791
G1 X-23.747 Y72.607 E117.95394
G1 X-38.068 Y66.23 E118.81427
G1 X-38.322 Y66.084 E118.83034
G1 X-51.008 Y56.867 E119.69089
G1 X-51.225 Y56.671 E119.70694
G1 X-61.717 Y45.019 E120.56743
G1 X-61.889 Y44.782 E120.5835
G1 X-69.726 Y31.206 E121.44377
G1 X-69.845 Y30.939 E121.45981
G1 X-74.692 Y16.027 E122.32031
G1 X-74.753 Y15.74 E122.33641
G1 X-76.392 Y.148 E123.19681
G1 X-76.392 Y-.144 E123.21283
G1 X-74.753 Y-15.741 E124.0735
G1 X-74.692 Y-16.028 E124.0896
G1 X-69.845 Y-30.94 E124.9501
G1 X-69.726 Y-31.207 E124.96614
G1 X-61.889 Y-44.782 E125.82636
G1 X-61.717 Y-45.019 E125.84243
G1 X-51.225 Y-56.671 E126.70292
G1 X-51.008 Y-56.867 E126.71897
G1 X-38.321 Y-66.085 E127.5796
G1 X-38.067 Y-66.231 E127.59567
G1 X-23.747 Y-72.607 E128.45592
G1 X-23.469 Y-72.697 E128.47196
G1 X-8.128 Y-75.958 E129.33267
G1 X-7.837 Y-75.989 E129.34873
G1 X7.837 Y-75.989 E130.20891
G1 X8.128 Y-75.958 E130.22497
G1 X23.469 Y-72.697 E131.08568
G1 X23.747 Y-72.607 E131.10172
G1 X38.067 Y-66.231 E131.96197
G1 X38.321 Y-66.085 E131.97805
G1 X51.008 Y-56.867 E132.83867
G1 X51.225 Y-56.671 E132.85472
G0 F4500 X50.928 Y-56.403
G1 F1800 X61.42 Y-44.751 E133.71521
G1 X61.543 Y-44.582 E133.72668
G1 X69.38 Y-31.007 E134.5869
G1 X69.465 Y-30.816 E134.59837
G1 X74.312 Y-15.904 E135.45888
G1 X74.356 Y-15.7 E135.47033
G1 X75.995 Y-.107 E136.33077
G1 X75.995 Y.103 E136.3423
G1 X74.356 Y15.699 E137.20291
G1 X74.312 Y15.903 E137.21436
G1 X69.465 Y30.815 E138.07487
G1 X69.38 Y31.006 E138.08634
G1 X61.543 Y44.582 E138.94661
G1 X61.42 Y44.751 E138.95808
G1 X50.928 Y56.403 E139.81856
G1 X50.773 Y56.543 E139.83003
G1 X38.087 Y65.76 E140.69058
G1 X37.906 Y65.865 E140.70206
G1 X23.585 Y72.242 E141.56238
G1 X23.386 Y72.306 E141.57385
G1 X8.045 Y75.567 E142.43457
G1 X7.837 Y75.589 E142.44605
G1 X-7.837 Y75.589 E143.30622
G1 X-8.045 Y75.567 E143.3177
G1 X-23.386 Y72.306 E144.17841
G1 X-23.585 Y72.242 E144.18989
G1 X-37.906 Y65.865 E145.05021
G1 X-38.087 Y65.76 E145.06169
G1 X-50.773 Y56.543 E145.92224
G1 X-50.928 Y56.403 E145.9337
G1 X-61.42 Y44.751 E146.79419
G1 X-61.543 Y44.582 E146.80566
G1 X-69.38 Y31.006 E147.66593
G1 X-69.465 Y30.815 E147.6774
G1 X-74.312 Y15.903 E148.53791
G1 X-74.356 Y15.699 E148.54936
G1 X-75.995 Y.107 E149.40975
G1 X-75.995 Y-.103 E149.42128
G1 X-74.356 Y-15.7 E150.28194
G1 X-74.312 Y-15.904 E150.29339
G1 X-69.465 Y-30.816 E151.1539
G1 X-69.38 Y-31.007 E151.16537
G1 X-61.543 Y-44.582 E152.02559
G1 X-61.42 Y-44.751 E152.03706
G1 X-50.928 Y-56.403 E152.89755
G1 X-50.773 Y-56.543 E152.90901
G1 X-38.086 Y-65.761 E153.76964
G1 X-37.905 Y-65.866 E153.78112
G1 X-23.585 Y-72.242 E154.64137
G1 X-23.386 Y-72.306 E154.65284
G1 X-8.045 Y-75.567 E155.51355
G1 X-7.837 Y-75.589 E155.52503
G1 X7.837 Y-75.589 E156.38521
G1 X8.045 Y-75.567 E156.39669
G1 X23.386 Y-72.306 E157.2574
G1 X23.585 Y-72.242 E157.26887
G1 X37.905 Y-65.866 E158.12912
G1 X38.086 Y-65.761 E158.14061
G1 X50.773 Y-56.543 E159.00123
G1 X50.928 Y-56.403 E159.0127
G0 F4500 X50.631 Y-56.135
G1 F1800 X61.123 Y-44.483 E159.87318
G1 X61.197 Y-44.382 E159.88005
G1 X69.034 Y-30.807 E160.74027
G1 X69.085 Y-30.692 E160.74718
G1 X73.932 Y-15.78 E161.60768
G1 X73.958 Y-15.658 E161.61453
G1 X75.597 Y-.065 E162.47497
G1 X75.597 Y.061 E162.48189
G1 X73.958 Y15.657 E163.3425
G1 X73.932 Y15.779 E163.34934
G1 X69.085 Y30.691 E164.20985
G1 X69.034 Y30.806 E164.21675
G1 X61.197 Y44.382 E165.07702
G1 X61.123 Y44.483 E165.08389
G1 X50.631 Y56.135 E165.94438
G1 X50.538 Y56.219 E165.95126
G1 X37.852 Y65.436 E166.81181
G1 X37.743 Y65.499 E166.81871
G1 X23.422 Y71.876 E167.67904
G1 X23.303 Y71.915 E167.68591
G1 X7.962 Y75.176 E168.54662
G1 X7.837 Y75.189 E168.55352
G1 X-7.837 Y75.189 E169.4137
G1 X-7.962 Y75.176 E169.42059
G1 X-23.303 Y71.915 E170.28131
G1 X-23.422 Y71.876 E170.28818
G1 X-37.743 Y65.499 E171.1485
G1 X-37.852 Y65.436 E171.15541
G1 X-50.538 Y56.219 E172.01596
G1 X-50.631 Y56.135 E172.02284
G1 X-61.123 Y44.483 E172.88332
G1 X-61.197 Y44.382 E172.89019
G1 X-69.034 Y30.806 E173.75046
G1 X-69.085 Y30.691 E173.75737
G1 X-73.932 Y15.779 E174.61787
G1 X-73.958 Y15.657 E174.62472
G1 X-75.597 Y.065 E175.48511
G1 X-75.597 Y-.061 E175.49202
G1 X-73.958 Y-15.658 E176.35269
G1 X-73.932 Y-15.78 E176.35953
G1 X-69.085 Y-30.692 E177.22004
G1 X-69.034 Y-30.807 E177.22694
G1 X-61.197 Y-44.382 E178.08716
G1 X-61.123 Y-44.483 E178.09403
G1 X-50.631 Y-56.135 E178.95452
G1 X-50.538 Y-56.219 E178.9614
G1 X-37.851 Y-65.437 E179.82202
G1 X-37.742 Y-65.5 E179.82893
G1 X-23.422 Y-71.876 E180.68918
G1 X-23.303 Y-71.915 E180.69605
G1 X-7.962 Y-75.176 E181.55677
G1 X-7.837 Y-75.189 E181.56366
G1 X7.837 Y-75.189 E182.42384
G1 X7.962 Y-75.176 E182.43074
G1 X23.303 Y-71.915 E183.29145
G1 X23.422 Y-71.876 E183.29832
G1 X37.742 Y-65.5 E184.15857
G1 X37.851 Y-65.437 E184.16548
G1 X50.538 Y-56.219 E185.02611
G1 X50.631 Y-56.135 E185.03299
G0 F4500 X50.334 Y-55.868
G1 F1800 X60.826 Y-44.216 E185.89347
G1 X60.85 Y-44.182 E185.89576
G1 X68.687 Y-30.607 E186.75598
G1 X68.704 Y-30.569 E186.75826
G1 X73.551 Y-15.657 E187.61877
G1 X73.56 Y-15.616 E187.62107
G1 X75.199 Y-.023 E188.48152
G1 X75.199 Y.019 E188.48382
G1 X73.56 Y15.615 E189.34443
G1 X73.551 Y15.656 E189.34673
G1 X68.704 Y30.568 E190.20724
G1 X68.687 Y30.606 E190.20952
G1 X60.85 Y44.182 E191.06979
G1 X60.826 Y44.216 E191.07207
G1 X50.334 Y55.868 E191.93256
G1 X50.303 Y55.896 E191.93485
G1 X37.617 Y65.113 E192.7954
G1 X37.58 Y65.134 E192.79774
G1 X23.259 Y71.511 E193.65806
G1 X23.22 Y71.524 E193.66032
G1 X7.879 Y74.785 E194.52103
G1 X7.837 Y74.789 E194.52334
G1 X-7.837 Y74.789 E195.38352
G1 X-7.879 Y74.785 E195.38584
G1 X-23.22 Y71.524 E196.24655
G1 X-23.259 Y71.511 E196.24881
G1 X-37.58 Y65.134 E197.10913
G1 X-37.617 Y65.113 E197.11146
G1 X-50.303 Y55.896 E197.97201
G1 X-50.334 Y55.868 E197.97431
G1 X-60.826 Y44.216 E198.83479
G1 X-60.85 Y44.182 E198.83708
G1 X-68.687 Y30.606 E199.69734
G1 X-68.704 Y30.568 E199.69963
G1 X-73.551 Y15.656 E200.56013
G1 X-73.56 Y15.615 E200.56244
G1 X-75.199 Y.023 E201.42283
G1 X-75.199 Y-.019 E201.42513
G1 X-73.56 Y-15.616 E202.2858
G1 X-73.551 Y-15.657 E202.2881
G1 X-68.704 Y-30.569 E203.1486
G1 X-68.687 Y-30.607 E203.15089
G1 X-60.85 Y-44.182 E204.01111
G1 X-60.826 Y-44.216 E204.01339
G1 X-50.334 Y-55.868 E204.87388
G1 X-50.303 Y-55.896 E204.87617
G1 X-37.616 Y-65.114 E205.7368
G1 X-37.579 Y-65.135 E205.73913
G1 X-23.259 Y-71.511 E206.59938
G1 X-23.22 Y-71.524 E206.60164
G1 X-7.879 Y-74.785 E207.46235
G1 X-7.837 Y-74.789 E207.46467
G1 X7.837 Y-74.789 E208.32485
G1 X7.879 Y-74.785 E208.32716
G1 X23.22 Y-71.524 E209.18787
G1 X23.259 Y-71.511 E209.19013
G1 X37.579 Y-65.135 E210.05038
G1 X37.616 Y-65.114 E210.05271
G1 X50.303 Y-55.896 E210.91334
G1 X50.334 Y-55.868 E210.91563
G0 F4500 X49.513 Y-54.985
;TYPE:WALL-INNER
G1 F1800 X59.867 Y-43.487 E211.76477
G1 X67.597 Y-30.097 E212.61326
G1 X72.376 Y-15.39 E213.46192
G1 X73.995 Y.00 E214.31117
G1 X72.376 Y15.39 E215.16042
G1 X67.597 Y30.097 E216.00907
G1 X59.867 Y43.487 E216.85756
G1 X49.513 Y54.985 E217.7067
G1 X36.992 Y64.083 E218.55609
G1 X22.867 Y70.373 E219.40464
G1 X7.734 Y73.589 E220.25367
G1 X-7.734 Y73.589 E221.10255
G1 X-22.867 Y70.373 E221.95158
G1 X-36.992 Y64.083 E222.80013
G1 X-49.513 Y54.985 E223.64952
G1 X-59.867 Y43.487 E224.49866
G1 X-67.597 Y30.097 E225.34715
G1 X-72.376 Y15.39 E226.1958
G1 X-73.995 Y.00 E227.04505
G1 X-72.376 Y-15.39 E227.8943
G1 X-67.597 Y-30.097 E228.74296
G1 X-59.867 Y-43.487 E229.59145
