;FLAVOR:RepRap
;TIME:1961
;Generated with Cura_SteamEngine 2.3.1
M190 S60
M104 S210
M109 S210
;Sliced at: {day} {date} {time}
G21        ;metric values
G90        ;absolute positioning
M107       ;start with the fan off
G28   ;move to endstops
G10   ; Retract
G29                      ;Auto Grid Leveling
G0 Z 20                ;Move to z 20
G0 X0 Y-80 F3000   ; Move to side of bed
G92 E0                  ;zero the extruded length
G1 F200 E50              ;extrude 3mm of feed stock
G92 E0                  ;zero the extruded length again
G1 F{travel_speed}
M117 Printing...
;LAYER_COUNT:2
;LAYER:0
M107
G1 F1500 E-4
G0 F4500 X-18.265 Y-76.363 Z.3
;TYPE:SKIRT
G1 F1500 E0
G1 F1800 X75.265 Y-22.363 E5.92692
G1 X75.668 Y-22.085 E5.95379
G1 X76.019 Y-21.744 E5.98064
G1 X76.311 Y-21.351 E6.00751
G1 X76.535 Y-20.916 E6.03437
G1 X76.686 Y-20.45 E6.06125
G1 X76.758 Y-19.966 E6.0881
G1 X76.751 Y-19.477 E6.11494
G1 X76.665 Y-18.995 E6.14181
G1 X76.501 Y-18.534 E6.16866
G1 X76.363 Y-18.265 E6.18525
G1 X22.363 Y75.265 E12.11218
G1 X22.085 Y75.668 E12.13904
G1 X21.744 Y76.019 E12.1659
G1 X21.351 Y76.311 E12.19277
G1 X20.916 Y76.535 E12.21962
G1 X20.45 Y76.686 E12.2465
G1 X19.966 Y76.758 E12.27336
G1 X19.477 Y76.751 E12.3002
G1 X18.995 Y76.665 E12.32707
G1 X18.534 Y76.501 E12.35392
G1 X18.265 Y76.363 E12.37051
G1 X-75.265 Y22.363 E18.29743
G1 X-75.668 Y22.085 E18.3243
G1 X-76.019 Y21.744 E18.35115
G1 X-76.311 Y21.351 E18.37802
G1 X-76.535 Y20.916 E18.40488
G1 X-76.686 Y20.45 E18.43176
G1 X-76.758 Y19.966 E18.45861
G1 X-76.751 Y19.477 E18.48545
G1 X-76.665 Y18.995 E18.51232
G1 X-76.501 Y18.534 E18.53917
G1 X-76.363 Y18.265 E18.55576
G1 X-22.363 Y-75.265 E24.48269
G1 X-22.085 Y-75.668 E24.50955
G1 X-21.744 Y-76.019 E24.53641
G1 X-21.351 Y-76.311 E24.56328
G1 X-20.916 Y-76.535 E24.59013
G1 X-20.45 Y-76.686 E24.61701
G1 X-19.966 Y-76.758 E24.64387
G1 X-19.477 Y-76.751 E24.67071
G1 X-18.995 Y-76.665 E24.69758
G1 X-18.534 Y-76.501 E24.72443
G1 X-18.265 Y-76.363 E24.74102
G0 F4500 X-18.465 Y-76.017
G1 F1800 X75.065 Y-22.017 E30.66794
G1 X75.438 Y-21.755 E30.69296
G1 X75.76 Y-21.433 E30.71795
G1 X76.02 Y-21.059 E30.74294
G1 X76.212 Y-20.645 E30.76799
G1 X76.328 Y-20.205 E30.79296
G1 X76.365 Y-19.75 E30.81801
G1 X76.322 Y-19.297 E30.84298
G1 X76.201 Y-18.857 E30.86803
G1 X76.017 Y-18.465 E30.89179
G1 X22.017 Y75.065 E36.81871
G1 X21.755 Y75.438 E36.84373
G1 X21.433 Y75.76 E36.86872
G1 X21.059 Y76.02 E36.89372
G1 X20.645 Y76.212 E36.91876
G1 X20.205 Y76.328 E36.94373
G1 X19.75 Y76.365 E36.96878
G1 X19.297 Y76.322 E36.99376
G1 X18.857 Y76.201 E37.0188
G1 X18.465 Y76.017 E37.04256
G1 X-75.065 Y22.017 E42.96949
G1 X-75.438 Y21.755 E42.9945
G1 X-75.76 Y21.433 E43.01949
G1 X-76.02 Y21.059 E43.04449
G1 X-76.212 Y20.645 E43.06953
G1 X-76.328 Y20.205 E43.0945
G1 X-76.365 Y19.75 E43.11956
G1 X-76.322 Y19.297 E43.14453
G1 X-76.201 Y18.857 E43.16957
G1 X-76.017 Y18.465 E43.19334
G1 X-22.017 Y-75.065 E49.12026
G1 X-21.755 Y-75.438 E49.14527
G1 X-21.433 Y-75.76 E49.17026
G1 X-21.059 Y-76.02 E49.19526
G1 X-20.645 Y-76.212 E49.22031
G1 X-20.205 Y-76.328 E49.24528
G1 X-19.75 Y-76.365 E49.27033
G1 X-19.297 Y-76.322 E49.2953
G1 X-18.857 Y-76.201 E49.32035
G1 X-18.465 Y-76.017 E49.34411
G0 F4500 X-18.665 Y-75.67
G1 F1800 X74.865 Y-21.67 E55.27103
G1 X75.206 Y-21.427 E55.29401
G1 X75.495 Y-21.124 E55.31699
G1 X75.722 Y-20.771 E55.34002
G1 X75.877 Y-20.382 E55.363
G1 X75.955 Y-19.97 E55.38601
G1 X75.955 Y-19.551 E55.40901
G1 X75.874 Y-19.14 E55.432
G1 X75.67 Y-18.665 E55.46037
G1 X21.67 Y74.865 E61.38729
G1 X21.427 Y75.206 E61.41027
G1 X21.124 Y75.495 E61.43325
G1 X20.771 Y75.722 E61.45628
G1 X20.382 Y75.877 E61.47926
G1 X19.97 Y75.955 E61.50227
G1 X19.551 Y75.955 E61.52527
G1 X19.14 Y75.874 E61.54825
G1 X18.665 Y75.67 E61.57662
G1 X-74.865 Y21.67 E67.50355
G1 X-75.206 Y21.427 E67.52652
G1 X-75.495 Y21.124 E67.5495
G1 X-75.722 Y20.771 E67.57254
G1 X-75.877 Y20.382 E67.59552
G1 X-75.955 Y19.97 E67.61853
G1 X-75.955 Y19.551 E67.64152
G1 X-75.874 Y19.14 E67.66451
G1 X-75.67 Y18.665 E67.69288
G1 X-21.67 Y-74.865 E73.6198
G1 X-21.427 Y-75.206 E73.64278
G1 X-21.124 Y-75.495 E73.66576
G1 X-20.771 Y-75.722 E73.68879
G1 X-20.382 Y-75.877 E73.71177
G1 X-19.97 Y-75.955 E73.73479
G1 X-19.551 Y-75.955 E73.75778
G1 X-19.14 Y-75.874 E73.78077
G1 X-18.665 Y-75.67 E73.80914
G0 F4500 X-18.865 Y-75.324
G1 F1800 X74.665 Y-21.324 E79.73606
G1 X74.971 Y-21.101 E79.75684
G1 X75.224 Y-20.819 E79.77763
G1 X75.413 Y-20.49 E79.79845
G1 X75.528 Y-20.129 E79.81924
G1 X75.565 Y-19.752 E79.84003
G1 X75.522 Y-19.375 E79.86086
G1 X75.324 Y-18.865 E79.89088
G1 X21.324 Y74.665 E85.8178
G1 X21.101 Y74.971 E85.83858
G1 X20.819 Y75.224 E85.85937
G1 X20.49 Y75.413 E85.88019
G1 X20.129 Y75.528 E85.90099
G1 X19.752 Y75.565 E85.92178
G1 X19.375 Y75.522 E85.9426
G1 X18.865 Y75.324 E85.97262
G1 X-74.665 Y21.324 E91.89954
G1 X-74.971 Y21.101 E91.92032
G1 X-75.224 Y20.819 E91.94111
G1 X-75.413 Y20.49 E91.96194
G1 X-75.528 Y20.129 E91.98273
G1 X-75.565 Y19.752 E92.00352
G1 X-75.522 Y19.375 E92.02434
G1 X-75.324 Y18.865 E92.05437
G1 X-21.324 Y-74.665 E97.98129
G1 X-21.101 Y-74.971 E98.00207
G1 X-20.819 Y-75.224 E98.02286
G1 X-20.49 Y-75.413 E98.04368
G1 X-20.129 Y-75.528 E98.06447
G1 X-19.752 Y-75.565 E98.08526
G1 X-19.375 Y-75.522 E98.10608
G1 X-18.865 Y-75.324 E98.13611
G0 F4500 X-19.065 Y-74.977
G1 F1800 X74.465 Y-20.977 E104.06303
G1 X74.732 Y-20.777 E104.08134
G1 X74.945 Y-20.519 E104.0997
G1 X75.09 Y-20.218 E104.11803
G1 X75.159 Y-19.891 E104.13637
G1 X75.15 Y-19.558 E104.15465
G1 X75.061 Y-19.235 E104.17304
G1 X74.977 Y-19.065 E104.18345
G1 X20.977 Y74.465 E110.11037
G1 X20.777 Y74.732 E110.12868
G1 X20.519 Y74.945 E110.14704
G1 X20.218 Y75.09 E110.16537
G1 X19.891 Y75.159 E110.18371
G1 X19.558 Y75.15 E110.20199
G1 X19.235 Y75.061 E110.22038
G1 X19.065 Y74.977 E110.23079
G1 X-74.465 Y20.977 E116.15771
G1 X-74.732 Y20.777 E116.17602
G1 X-74.945 Y20.519 E116.19438
G1 X-75.09 Y20.218 E116.21271
G1 X-75.159 Y19.891 E116.23105
G1 X-75.15 Y19.558 E116.24933
G1 X-75.061 Y19.235 E116.26772
G1 X-74.977 Y19.065 E116.27813
G1 X-20.977 Y-74.465 E122.20505
G1 X-20.777 Y-74.732 E122.22335
G1 X-20.519 Y-74.945 E122.24172
G1 X-20.218 Y-75.09 E122.26005
G1 X-19.891 Y-75.159 E122.27839
G1 X-19.558 Y-75.15 E122.29667
G1 X-19.235 Y-75.061 E122.31506
G1 X-19.065 Y-74.977 E122.32547
G0 F4500 X-19.265 Y-74.631
G1 F1800 X74.265 Y-20.631 E128.25239
G1 X74.487 Y-20.457 E128.26787
G1 X74.652 Y-20.228 E128.28336
G1 X74.745 Y-19.962 E128.29882
G1 X74.761 Y-19.68 E128.31432
G1 X74.698 Y-19.405 E128.3298
G1 X74.631 Y-19.265 E128.33832
G1 X20.631 Y74.265 E134.26524
G1 X20.457 Y74.487 E134.28072
G1 X20.228 Y74.652 E134.29621
G1 X19.962 Y74.745 E134.31168
G1 X19.68 Y74.761 E134.32718
G1 X19.405 Y74.698 E134.34266
G1 X19.265 Y74.631 E134.35118
G1 X-74.265 Y20.631 E140.2781
G1 X-74.487 Y20.457 E140.29358
G1 X-74.652 Y20.228 E140.30907
G1 X-74.745 Y19.962 E140.32453
G1 X-74.761 Y19.68 E140.34003
G1 X-74.698 Y19.405 E140.35551
G1 X-74.631 Y19.265 E140.36403
G1 X-20.631 Y-74.265 E146.29095
G1 X-20.457 Y-74.487 E146.30643
G1 X-20.228 Y-74.652 E146.32192
G1 X-19.962 Y-74.745 E146.33739
G1 X-19.68 Y-74.761 E146.35289
G1 X-19.405 Y-74.698 E146.36837
G1 X-19.265 Y-74.631 E146.37689
G0 F4500 X-19.465 Y-74.285
G1 F1800 X74.065 Y-20.285 E152.30381
G1 X74.231 Y-20.143 E152.3158
G1 X74.335 Y-19.951 E152.32778
G1 X74.364 Y-19.735 E152.33974
G1 X74.285 Y-19.465 E152.35518
G1 X20.285 Y74.065 E158.2821
G1 X20.143 Y74.231 E158.29409
G1 X19.951 Y74.335 E158.30607
G1 X19.735 Y74.364 E158.31803
G1 X19.465 Y74.285 E158.33347
G1 X-74.065 Y20.285 E164.26039
G1 X-74.231 Y20.143 E164.27238
G1 X-74.335 Y19.951 E164.28436
G1 X-74.364 Y19.735 E164.29632
G1 X-74.285 Y19.465 E164.31176
G1 X-20.285 Y-74.065 E170.23868
G1 X-20.143 Y-74.231 E170.25067
G1 X-19.951 Y-74.335 E170.26265
G1 X-19.735 Y-74.364 E170.27461
G1 X-19.465 Y-74.285 E170.29005
G0 F4500 X-19.938 Y-73.865
G1 F1800 X-19.845 Y-73.948 E170.29689
G1 X-19.665 Y-73.938 E170.30679
G1 X73.865 Y-19.938 E176.23371
G1 X73.948 Y-19.845 E176.24055
G1 X73.938 Y-19.665 E176.25044
G1 X19.938 Y73.865 E182.17736
G1 X19.845 Y73.948 E182.1842
G1 X19.665 Y73.938 E182.1941
G1 X-73.865 Y19.938 E188.12102
G1 X-73.948 Y19.845 E188.12786
G1 X-73.938 Y19.665 E188.13775
G1 X-19.938 Y-73.865 E194.06467
G0 F4500 X-19.4 Y-72.4
;TYPE:WALL-INNER
G1 F1800 X72.4 Y-19.4 E199.88193
G1 X19.4 Y72.4 E205.69919
G1 X-72.4 Y19.4 E211.51645
G1 X-19.4 Y-72.4 E217.33371
G0 F4500 X-19.546 Y-72.946
G1 F1800 X72.946 Y-19.546 E223.19484
G1 X19.546 Y72.946 E229.05596
G1 X-72.946 Y19.546 E234.91708
G1 X-19.546 Y-72.946 E240.77821
G0 F4500 X-19.692 Y-73.492
;TYPE:WALL-OUTER
G1 F1800 X73.492 Y-19.692 E246.6832
G1 X19.692 Y73.492 E252.58818
G1 X-73.492 Y19.692 E258.49317
G1 X-19.692 Y-73.492 E264.39816
G0 F4500 X-19.427 Y-72.035
;TYPE:SKIN
G1 F1800 X57.938 Y5.329 E270.40249
G0 X58.008 Y5.399
G0 F4500 X57.731 Y5.687
G1 F1800 X-19.634 Y-71.677 E276.40683
G0 X-19.704 Y-71.747
G0 F4500 X-19.84 Y-71.318
G1 F1800 X57.524 Y6.047 E282.41116
G0 X57.594 Y6.117
G0 F4500 X57.317 Y6.405
G1 F1800 X-20.047 Y-70.959 E288.41545
G0 X-20.117 Y-71.029
G0 F4500 X-20.255 Y-70.601
G1 F1800 X57.11 Y6.764 E294.41982
G0 X57.18 Y6.834
G0 F4500 X56.903 Y7.122
G1 F1800 X-20.462 Y-70.242 E300.42415
G0 X-20.532 Y-70.312
G0 F4500 X-20.669 Y-69.884
G1 F1800 X56.695 Y7.481 E306.42848
G0 X56.765 Y7.551
G0 F4500 X56.488 Y7.839
G1 F1800 X-20.876 Y-69.525 E312.43278
G0 X-20.946 Y-69.595
G0 F4500 X-21.083 Y-69.166
G1 F1800 X56.282 Y8.198 E318.43711
G0 X56.352 Y8.268
G0 F4500 X56.074 Y8.557
G1 F1800 X-21.29 Y-68.807 E324.4414
G0 X-21.36 Y-68.877
G0 F4500 X-21.497 Y-68.449
G1 F1800 X55.867 Y8.915 E330.44569
G0 X55.937 Y8.985
G0 F4500 X55.66 Y9.274
G1 F1800 X-21.704 Y-68.09 E336.44999
G0 X-21.774 Y-68.16
G0 F4500 X-21.911 Y-67.732
G1 F1800 X55.453 Y9.632 E342.45428
G0 X55.523 Y9.702
G0 F4500 X55.246 Y9.992
G1 F1800 X-22.118 Y-67.373 E348.45861
G0 X-22.188 Y-67.443
G0 F4500 X-22.325 Y-67.014
G1 F1800 X55.039 Y10.35 E354.4629
G0 X55.109 Y10.42
G0 F4500 X54.832 Y10.709
G1 F1800 X-22.532 Y-66.656 E360.46724
G0 X-22.602 Y-66.726
G0 F4500 X-22.739 Y-66.297
G1 F1800 X54.625 Y11.067 E366.47153
G0 X54.695 Y11.137
G0 F4500 X54.418 Y11.426
G1 F1800 X-22.947 Y-65.939 E372.4759
G0 X-23.017 Y-66.009
G0 F4500 X-23.153 Y-65.579
G1 F1800 X54.211 Y11.784 E378.48015
G0 X54.281 Y11.854
G0 F4500 X54.004 Y12.143
G1 F1800 X-23.36 Y-65.221 E384.48445
G0 X-23.43 Y-65.291
G0 F4500 X-23.567 Y-64.862
G1 F1800 X53.797 Y12.502 E390.48874
G0 X53.867 Y12.572
G0 F4500 X53.59 Y12.86
G1 F1800 X-23.775 Y-64.504 E396.49307
G0 X-23.845 Y-64.574
G0 F4500 X-23.982 Y-64.145
G1 F1800 X53.383 Y13.219 E402.4974
G0 X53.453 Y13.289
G0 F4500 X53.175 Y13.577
G1 F1800 X-24.189 Y-63.787 E408.5017
G0 X-24.259 Y-63.857
G0 F4500 X-24.395 Y-63.428
G1 F1800 X52.969 Y13.937 E414.50603
G0 X53.039 Y14.007
G0 F4500 X52.762 Y14.295
G1 F1800 X-24.603 Y-63.069 E420.51036
G0 X-24.673 Y-63.139
G0 F4500 X-24.81 Y-62.711
G1 F1800 X52.555 Y14.654 E426.51473
G0 X52.625 Y14.724
G0 F4500 X52.347 Y15.012
G1 F1800 X-25.017 Y-62.352 E432.51902
G0 X-25.087 Y-62.422
G0 F4500 X-25.224 Y-61.994
G1 F1800 X52.14 Y15.371 E438.52335
G0 X52.21 Y15.441
G0 F4500 X51.934 Y15.73
G1 F1800 X-25.431 Y-61.634 E444.52769
G0 X-25.501 Y-61.704
G0 F4500 X-25.638 Y-61.276
G1 F1800 X51.726 Y16.088 E450.53198
G0 X51.796 Y16.158
G0 F4500 X51.519 Y16.447
G1 F1800 X-25.845 Y-60.917 E456.53627
G0 X-25.915 Y-60.987
G0 F4500 X-26.052 Y-60.559
G1 F1800 X51.312 Y16.805 E462.54056
G0 X51.382 Y16.875
G0 F4500 X51.105 Y17.164
G1 F1800 X-26.259 Y-60.2 E468.54486
G0 X-26.329 Y-60.27
G0 F4500 X-26.466 Y-59.841
G1 F1800 X50.898 Y17.522 E474.54911
G0 X50.968 Y17.592
G0 F4500 X50.691 Y17.882
G1 F1800 X-26.673 Y-59.483 E480.55344
G0 X-26.743 Y-59.553
G0 F4500 X-26.88 Y-59.124
G1 F1800 X50.484 Y18.24 E486.55774
G0 X50.554 Y18.31
G0 F4500 X50.277 Y18.599
G1 F1800 X-27.087 Y-58.766 E492.56207
G0 X-27.157 Y-58.836
G0 F4500 X-27.295 Y-58.407
G1 F1800 X50.07 Y18.957 E498.5664
G0 X50.14 Y19.027
G0 F4500 X49.863 Y19.316
G1 F1800 X-27.502 Y-58.049 E504.57077
G0 X-27.572 Y-58.119
G0 F4500 X-27.708 Y-57.69
G1 F1800 X49.656 Y19.675 E510.5751
G0 X49.726 Y19.745
G0 F4500 X49.449 Y20.033
G1 F1800 X-27.915 Y-57.331 E516.57939
G0 X-27.985 Y-57.401
G0 F4500 X-28.123 Y-56.973
G1 F1800 X49.242 Y20.392 E522.58376
G0 X49.312 Y20.462
G0 F4500 X49.035 Y20.75
G1 F1800 X-28.33 Y-56.614 E528.5881
G0 X-28.4 Y-56.684
G0 F4500 X-28.537 Y-56.256
G1 F1800 X48.827 Y21.109 E534.59243
G0 X48.897 Y21.179
G0 F4500 X48.621 Y21.468
G1 F1800 X-28.743 Y-55.896 E540.59672
G0 X-28.813 Y-55.966
G0 F4500 X-28.951 Y-55.538
G1 F1800 X48.414 Y21.826 E546.60105
G0 X48.484 Y21.896
G0 F4500 X48.207 Y22.185
G1 F1800 X-29.158 Y-55.179 E552.60538
G0 X-29.228 Y-55.249
G0 F4500 X-29.365 Y-54.821
G1 F1800 X47.999 Y22.543 E558.60968
G0 X48.069 Y22.613
G0 F4500 X47.792 Y22.902
G1 F1800 X-29.572 Y-54.462 E564.61397
G0 X-29.642 Y-54.532
G0 F4500 X-29.779 Y-54.103
G1 F1800 X47.585 Y23.26 E570.61822
G0 X47.655 Y23.33
G0 F4500 X47.378 Y23.62
G1 F1800 X-29.986 Y-53.745 E576.62255
G0 X-30.056 Y-53.815
G0 F4500 X-30.193 Y-53.386
G1 F1800 X47.171 Y23.978 E582.62685
G0 X47.241 Y24.048
G0 F4500 X46.964 Y24.337
G1 F1800 X-30.4 Y-53.028 E588.63118
G0 X-30.47 Y-53.098
G0 F4500 X-30.607 Y-52.669
G1 F1800 X46.757 Y24.695 E594.63547
G0 X46.827 Y24.765
G0 F4500 X46.55 Y25.054
G1 F1800 X-30.815 Y-52.311 E600.63984
G0 X-30.885 Y-52.381
G0 F4500 X-31.021 Y-51.951
G1 F1800 X46.343 Y25.413 E606.64414
G0 X46.413 Y25.483
G0 F4500 X46.136 Y25.771
G1 F1800 X-31.228 Y-51.593 E612.64843
G0 X-31.298 Y-51.663
G0 F4500 X-31.435 Y-51.234
G1 F1800 X45.929 Y26.13 E618.65272
G0 X45.999 Y26.2
G0 F4500 X45.722 Y26.488
G1 F1800 X-31.643 Y-50.876 E624.65705
G0 X-31.713 Y-50.946
G0 F4500 X-31.85 Y-50.517
G1 F1800 X45.515 Y26.847 E630.66138
G0 X45.585 Y26.917
G0 F4500 X45.308 Y27.206
G1 F1800 X-32.056 Y-50.158 E636.66568
G0 X-32.126 Y-50.228
G0 F4500 X-32.263 Y-49.8
G1 F1800 X45.101 Y27.565 E642.67001
G0 X45.171 Y27.635
G0 F4500 X44.894 Y27.923
G1 F1800 X-32.471 Y-49.441 E648.67434
G0 X-32.541 Y-49.511
G0 F4500 X-32.678 Y-49.083
G1 F1800 X44.687 Y28.282 E654.67871
G0 X44.757 Y28.352
G0 F4500 X44.479 Y28.64
G1 F1800 X-32.885 Y-48.724 E660.683
G0 X-32.955 Y-48.794
G0 F4500 X-33.092 Y-48.366
G1 F1800 X44.272 Y28.999 E666.68734
G0 X44.342 Y29.069
G0 F4500 X44.066 Y29.358
G1 F1800 X-33.299 Y-48.006 E672.69167
G0 X-33.369 Y-48.076
G0 F4500 X-33.506 Y-47.648
G1 F1800 X43.859 Y29.716 E678.696
G0 X43.929 Y29.786
G0 F4500 X43.651 Y30.075
G1 F1800 X-33.713 Y-47.289 E684.70029
G0 X-33.783 Y-47.359
G0 F4500 X-33.92 Y-46.931
G1 F1800 X43.444 Y30.433 E690.70458
G0 X43.514 Y30.503
G0 F4500 X43.237 Y30.792
G1 F1800 X-34.127 Y-46.572 E696.70888
G0 X-34.197 Y-46.642
G0 F4500 X-34.334 Y-46.213
G1 F1800 X43.03 Y31.151 E702.71317
G0 X43.1 Y31.221
G0 F4500 X42.823 Y31.51
G1 F1800 X-34.541 Y-45.855 E708.7175
G0 X-34.611 Y-45.925
G0 F4500 X-34.748 Y-45.496
G1 F1800 X42.616 Y31.868 E714.72179
G0 X42.686 Y31.938
G0 F4500 X42.409 Y32.227
G1 F1800 X-34.955 Y-45.138 E720.72613
G0 X-35.025 Y-45.208
G0 F4500 X-35.163 Y-44.779
G1 F1800 X42.202 Y32.585 E726.73046
G0 X42.272 Y32.655
G0 F4500 X41.995 Y32.944
G1 F1800 X-35.369 Y-44.42 E732.73475
G0 X-35.439 Y-44.49
G0 F4500 X-35.576 Y-44.061
G1 F1800 X41.788 Y33.303 E738.73904
G0 X41.858 Y33.373
G0 F4500 X41.581 Y33.661
G1 F1800 X-35.783 Y-43.703 E744.74334
G0 X-35.853 Y-43.773
G0 F4500 X-35.991 Y-43.344
G1 F1800 X41.374 Y34.02 E750.74767
G0 X41.444 Y34.09
G0 F4500 X41.167 Y34.378
G1 F1800 X-36.198 Y-42.986 E756.752
G0 X-36.268 Y-43.056
G0 F4500 X-36.405 Y-42.627
G1 F1800 X40.959 Y34.737 E762.75629
G0 X41.029 Y34.807
G0 F4500 X40.753 Y35.096
G1 F1800 X-36.611 Y-42.268 E768.76059
G0 X-36.681 Y-42.338
G0 F4500 X-36.819 Y-41.91
G1 F1800 X40.546 Y35.455 E774.76496
G0 X40.616 Y35.525
G0 F4500 X40.339 Y35.813
G1 F1800 X-37.026 Y-41.551 E780.76929
G0 X-37.096 Y-41.621
G0 F4500 X-37.233 Y-41.193
G1 F1800 X40.131 Y36.172 E786.77362
G0 X40.201 Y36.242
G0 F4500 X39.924 Y36.53
G1 F1800 X-37.44 Y-40.834 E792.77791
G0 X-37.51 Y-40.904
G0 F4500 X-37.647 Y-40.475
