;FLAVOR:RepRap
;TIME:18716
;Generated with Cura_SteamEngine 2.3.1
M190 S60
M104 S205
M109 S205
;Sliced at: {day} {date} {time}
;Basic settings: Layer height: 0.2 Walls: 0.8 Fill: {fill_density}
;Print time: {print_time}
;Filament used: {filament_amount}m {filament_weight}g
;Filament cost: {filament_cost}
;M190 S{print_bed_temperature} ;Uncomment to add your own bed temperature line
;M109 S{print_temperature} ;Uncomment to add your own temperature line
G21        ;metric values
G90        ;absolute positioning
M107       ;start with the fan off
G28   ;move to endstops
G92 E0                  ;zero the extruded length
G1 F200 E3              ;extrude 3mm of feed stock
G92 E0                  ;zero the extruded length again
G1 F{travel_speed}
;Put printing message on LCD screen
M117 Printing...

;LAYER_COUNT:750
;LAYER:0
M107
G1 F1500 E-4
G1 Z21
G0 F3600 X55.8 Y44.978 Z1.2
;TYPE:SKIRT
G1 Z.2
G1 F1500 E0
G1 F1800 X55.769 Y45.576 E0.01992
G1 X55.659 Y46.638 E0.05543
G1 X55.549 Y47.31 E0.07808
G1 X55.404 Y47.837 E0.09626
G1 X55.08 Y48.831 E0.13103
G1 X54.832 Y49.465 E0.15367
G1 X54.592 Y49.928 E0.17102
G1 X54.072 Y50.831 E0.20567
G1 X53.698 Y51.4 E0.22832
G1 X53.355 Y51.819 E0.24633
G1 X52.655 Y52.596 E0.28111
G1 X52.171 Y53.074 E0.30374
G1 X51.757 Y53.405 E0.32137
G1 X50.91 Y54.021 E0.3562
G1 X50.337 Y54.388 E0.37884
G1 X49.859 Y54.628 E0.39663
G1 X48.907 Y55.052 E0.43129
G1 X48.27 Y55.292 E0.45393
G1 X47.751 Y55.428 E0.47177
G1 X46.724 Y55.646 E0.50669
G1 X46.051 Y55.748 E0.52933
G1 X45.52 Y55.772 E0.54701
G1 X-45.52 Y55.772 E3.57501
G1 X-46.2 Y55.732 E3.59767
G1 X-46.724 Y55.646 E3.61533
G1 X-47.751 Y55.428 E3.65025
G1 X-48.408 Y55.247 E3.67292
G1 X-48.907 Y55.052 E3.69074
G1 X-49.859 Y54.628 E3.7254
G1 X-50.463 Y54.315 E3.74802
G1 X-50.91 Y54.021 E3.76582
G1 X-51.757 Y53.405 E3.80065
G1 X-52.284 Y52.973 E3.82332
G1 X-52.655 Y52.596 E3.84091
G1 X-53.355 Y51.819 E3.87569
G1 X-53.78 Y51.287 E3.89834
G1 X-54.072 Y50.831 E3.91635
G1 X-54.592 Y49.928 E3.95101
G1 X-54.897 Y49.319 E3.97366
G1 X-55.08 Y48.831 E3.991
G1 X-55.404 Y47.837 E4.02577
G1 X-55.577 Y47.179 E4.0484
G1 X-55.658 Y46.65 E4.0662
G1 X-55.768 Y45.61 E4.10098
G1 X-55.8 Y45 E4.1213
G1 X-55.8 Y-44.999 E7.11468
G1 X-55.768 Y-45.608 E7.13496
G1 X-55.658 Y-46.65 E7.16981
G1 X-55.547 Y-47.322 E7.19246
G1 X-55.404 Y-47.838 E7.21027
G1 X-55.08 Y-48.832 E7.24504
G1 X-54.832 Y-49.466 E7.26769
G1 X-54.591 Y-49.932 E7.28514
G1 X-54.071 Y-50.834 E7.31977
G1 X-53.697 Y-51.403 E7.34241
G1 X-53.355 Y-51.819 E7.36032
G1 X-52.655 Y-52.596 E7.39511
G1 X-52.171 Y-53.074 E7.41773
G1 X-51.761 Y-53.402 E7.4352
G1 X-50.914 Y-54.019 E7.47005
G1 X-50.341 Y-54.387 E7.4927
G1 X-49.854 Y-54.632 E7.51083
G1 X-48.904 Y-55.054 E7.54541
G1 X-48.266 Y-55.293 E7.56807
G1 X-47.753 Y-55.427 E7.5857
G1 X-46.726 Y-55.645 E7.62062
G1 X-46.053 Y-55.747 E7.64326
G1 X-45.522 Y-55.771 E7.66094
G1 X45.52 Y-55.772 E10.68901
G1 X46.2 Y-55.732 E10.71167
G1 X46.724 Y-55.646 E10.72933
G1 X47.751 Y-55.428 E10.76425
G1 X48.408 Y-55.247 E10.78691
G1 X48.904 Y-55.053 E10.80463
G1 X49.855 Y-54.63 E10.83924
G1 X50.46 Y-54.318 E10.86188
G1 X50.91 Y-54.021 E10.87982
G1 X51.758 Y-53.404 E10.9147
G1 X52.284 Y-52.972 E10.93734
G1 X52.655 Y-52.596 E10.95491
G1 X53.355 Y-51.819 E10.98969
G1 X53.78 Y-51.287 E11.01234
G1 X54.071 Y-50.834 E11.03024
G1 X54.591 Y-49.932 E11.06487
G1 X54.896 Y-49.323 E11.08753
G1 X55.08 Y-48.832 E11.10497
G1 X55.404 Y-47.838 E11.13974
G1 X55.577 Y-47.18 E11.16237
G1 X55.659 Y-46.639 E11.18057
G1 X55.769 Y-45.577 E11.21608
G1 X55.8 Y-44.979 E11.236
G1 X55.8 Y44.978 E14.22798
G0 F3600 X55.4 Y44.978
G1 F1800 X55.371 Y45.534 E14.24649
G1 X55.261 Y46.596 E14.28201
G1 X55.154 Y47.244 E14.30385
G1 X55.024 Y47.714 E14.32007
G1 X54.7 Y48.708 E14.35484
G1 X54.459 Y49.319 E14.37669
G1 X54.246 Y49.729 E14.39206
G1 X53.726 Y50.632 E14.42671
G1 X53.364 Y51.18 E14.44856
G1 X53.058 Y51.551 E14.46455
G1 X52.358 Y52.328 E14.49934
G1 X51.889 Y52.789 E14.52121
G1 X51.522 Y53.081 E14.53681
G1 X50.675 Y53.697 E14.57164
G1 X50.121 Y54.051 E14.59351
G1 X49.696 Y54.263 E14.60931
G1 X48.744 Y54.687 E14.64397
G1 X48.129 Y54.917 E14.66581
G1 X47.668 Y55.036 E14.68164
G1 X46.641 Y55.254 E14.71656
G1 X45.992 Y55.351 E14.73839
G1 X45.52 Y55.372 E14.7541
G1 X-45.52 Y55.372 E17.7821
G1 X-46.176 Y55.332 E17.80396
G1 X-46.641 Y55.254 E17.81964
G1 X-47.668 Y55.036 E17.85456
G1 X-48.301 Y54.861 E17.87641
G1 X-48.744 Y54.687 E17.89224
G1 X-49.696 Y54.263 E17.9269
G1 X-50.279 Y53.96 E17.94875
G1 X-50.675 Y53.697 E17.96456
G1 X-51.522 Y53.081 E17.9994
G1 X-52.029 Y52.663 E18.02125
G1 X-52.358 Y52.328 E18.03687
G1 X-53.058 Y51.551 E18.07165
G1 X-53.467 Y51.037 E18.0935
G1 X-53.726 Y50.632 E18.10949
G1 X-54.246 Y49.729 E18.14415
G1 X-54.538 Y49.141 E18.16598
G1 X-54.7 Y48.708 E18.18136
G1 X-55.024 Y47.714 E18.21613
G1 X-55.189 Y47.078 E18.23799
G1 X-55.26 Y46.608 E18.2538
G1 X-55.37 Y45.568 E18.28858
G1 X-55.4 Y45 E18.3075
G1 X-55.4 Y-44.999 E21.30088
G1 X-55.37 Y-45.566 E21.31976
G1 X-55.26 Y-46.608 E21.35461
G1 X-55.152 Y-47.256 E21.37646
G1 X-55.024 Y-47.715 E21.39231
G1 X-54.7 Y-48.709 E21.42708
G1 X-54.459 Y-49.32 E21.44893
G1 X-54.244 Y-49.732 E21.46438
G1 X-53.724 Y-50.634 E21.49901
G1 X-53.362 Y-51.182 E21.52086
G1 X-53.058 Y-51.551 E21.53676
G1 X-52.358 Y-52.328 E21.57154
G1 X-51.889 Y-52.789 E21.59342
G1 X-51.525 Y-53.079 E21.6089
G1 X-50.678 Y-53.696 E21.64375
G1 X-50.125 Y-54.05 E21.66559
G1 X-49.691 Y-54.266 E21.68171
G1 X-48.741 Y-54.688 E21.71629
G1 X-48.126 Y-54.918 E21.73812
G1 X-47.67 Y-55.035 E21.75378
G1 X-46.643 Y-55.253 E21.7887
G1 X-45.994 Y-55.35 E21.81053
G1 X-45.522 Y-55.371 E21.82624
G1 X45.52 Y-55.372 E24.85431
G1 X46.176 Y-55.332 E24.87617
G1 X46.641 Y-55.254 E24.89185
G1 X47.668 Y-55.036 E24.92677
G1 X48.301 Y-54.861 E24.94861
G1 X48.742 Y-54.688 E24.96437
G1 X49.693 Y-54.265 E24.99899
G1 X50.276 Y-53.962 E25.02084
G1 X50.675 Y-53.698 E25.03675
G1 X51.523 Y-53.081 E25.07163
G1 X52.03 Y-52.662 E25.09351
G1 X52.358 Y-52.328 E25.10908
G1 X53.058 Y-51.551 E25.14386
G1 X53.467 Y-51.037 E25.16571
G1 X53.724 Y-50.634 E25.18161
G1 X54.244 Y-49.732 E25.21624
G1 X54.537 Y-49.144 E25.23809
G1 X54.7 Y-48.709 E25.25354
G1 X55.024 Y-47.715 E25.28831
G1 X55.189 Y-47.079 E25.31017
G1 X55.261 Y-46.597 E25.32638
G1 X55.371 Y-45.535 E25.36189
G1 X55.4 Y-44.979 E25.3804
G1 X55.4 Y44.978 E28.37239
G0 F3600 X55 Y44.978
G1 F1800 X54.973 Y45.493 E28.38954
G1 X54.863 Y46.555 E28.42505
G1 X54.759 Y47.179 E28.44609
G1 X54.644 Y47.59 E28.46029
G1 X54.32 Y48.584 E28.49506
G1 X54.086 Y49.171 E28.51608
G1 X53.899 Y49.529 E28.52951
G1 X53.379 Y50.432 E28.56417
G1 X53.029 Y50.959 E28.58521
G1 X52.761 Y51.284 E28.59922
G1 X52.061 Y52.061 E28.634
G1 X51.609 Y52.503 E28.65503
G1 X51.287 Y52.758 E28.66869
G1 X50.44 Y53.374 E28.70353
G1 X49.906 Y53.712 E28.72455
G1 X49.533 Y53.897 E28.73839
G1 X48.581 Y54.321 E28.77306
G1 X47.989 Y54.542 E28.79407
G1 X47.585 Y54.645 E28.80794
G1 X46.558 Y54.863 E28.84286
G1 X45.933 Y54.955 E28.86387
G1 X45.52 Y54.972 E28.87762
G1 X-45.52 Y54.972 E31.90562
G1 X-46.151 Y54.932 E31.92665
G1 X-46.558 Y54.863 E31.94038
G1 X-47.585 Y54.645 E31.9753
G1 X-48.194 Y54.475 E31.99633
G1 X-48.581 Y54.321 E32.01018
G1 X-49.533 Y53.897 E32.04485
G1 X-50.093 Y53.604 E32.06587
G1 X-50.44 Y53.374 E32.07971
G1 X-51.287 Y52.758 E32.11455
G1 X-51.774 Y52.354 E32.13559
G1 X-52.061 Y52.061 E32.14923
G1 X-52.761 Y51.284 E32.18402
G1 X-53.153 Y50.788 E32.20504
G1 X-53.379 Y50.432 E32.21907
G1 X-53.899 Y49.529 E32.25373
G1 X-54.179 Y48.963 E32.27473
G1 X-54.32 Y48.584 E32.28818
G1 X-54.644 Y47.59 E32.32295
G1 X-54.801 Y46.977 E32.344
G1 X-54.862 Y46.566 E32.35782
G1 X-54.972 Y45.526 E32.3926
G1 X-55 Y45 E32.41012
G1 X-55 Y-44.999 E35.4035
G1 X-54.972 Y-45.524 E35.42099
G1 X-54.862 Y-46.566 E35.45584
G1 X-54.756 Y-47.189 E35.47686
G1 X-54.644 Y-47.591 E35.49074
G1 X-54.32 Y-48.585 E35.52551
G1 X-54.086 Y-49.172 E35.54653
G1 X-53.898 Y-49.532 E35.56003
G1 X-53.378 Y-50.434 E35.59466
G1 X-53.028 Y-50.961 E35.6157
G1 X-52.761 Y-51.284 E35.62964
G1 X-52.061 Y-52.061 E35.66443
G1 X-51.609 Y-52.503 E35.68545
G1 X-51.29 Y-52.755 E35.69897
G1 X-50.443 Y-53.372 E35.73383
G1 X-49.91 Y-53.712 E35.75486
G1 X-49.529 Y-53.9 E35.76899
G1 X-48.579 Y-54.322 E35.80356
G1 X-47.986 Y-54.542 E35.8246
G1 X-47.587 Y-54.644 E35.83829
G1 X-46.56 Y-54.862 E35.87321
G1 X-45.935 Y-54.954 E35.89423
G1 X-45.522 Y-54.971 E35.90797
G1 X45.52 Y-54.972 E38.93604
G1 X46.151 Y-54.932 E38.95707
G1 X46.558 Y-54.863 E38.9708
G1 X47.585 Y-54.645 E39.00572
G1 X48.194 Y-54.475 E39.02675
G1 X48.579 Y-54.322 E39.04053
G1 X49.53 Y-53.899 E39.07515
G1 X50.09 Y-53.607 E39.09615
G1 X50.44 Y-53.374 E39.11014
G1 X51.288 Y-52.757 E39.14502
G1 X51.774 Y-52.354 E39.16602
G1 X52.061 Y-52.061 E39.17966
G1 X52.761 Y-51.284 E39.21444
G1 X53.153 Y-50.788 E39.23547
G1 X53.378 Y-50.434 E39.24942
G1 X53.898 Y-49.532 E39.28405
G1 X54.178 Y-48.966 E39.30505
G1 X54.32 Y-48.585 E39.31858
G1 X54.644 Y-47.591 E39.35335
G1 X54.801 Y-46.978 E39.3744
G1 X54.863 Y-46.556 E39.38858
G1 X54.973 Y-45.494 E39.42409
G1 X55 Y-44.979 E39.44125
G1 X55 Y44.978 E42.43323
G0 F3600 X54.6 Y44.978
G1 F1800 X54.576 Y45.452 E42.44901
G1 X54.466 Y46.514 E42.48453
G1 X54.363 Y47.112 E42.50471
G1 X54.264 Y47.466 E42.51693
G1 X53.94 Y48.46 E42.55171
G1 X53.714 Y49.022 E42.57185
G1 X53.552 Y49.33 E42.58343
G1 X53.032 Y50.233 E42.61809
G1 X52.696 Y50.737 E42.63823
G1 X52.464 Y51.016 E42.6503
G1 X51.764 Y51.793 E42.68508
G1 X51.329 Y52.216 E42.70527
G1 X51.052 Y52.434 E42.71699
G1 X50.205 Y53.05 E42.75182
G1 X49.692 Y53.374 E42.772
G1 X49.371 Y53.532 E42.7839
G1 X48.419 Y53.956 E42.81857
G1 X47.85 Y54.166 E42.83874
G1 X47.502 Y54.254 E42.85068
G1 X46.475 Y54.472 E42.8856
G1 X45.875 Y54.558 E42.90576
G1 X45.52 Y54.572 E42.91757
G1 X-45.52 Y54.572 E45.94558
G1 X-46.125 Y54.532 E45.96574
G1 X-46.475 Y54.472 E45.97755
G1 X-47.502 Y54.254 E46.01247
G1 X-48.086 Y54.089 E46.03266
G1 X-48.419 Y53.956 E46.04458
G1 X-49.371 Y53.532 E46.07924
G1 X-49.907 Y53.249 E46.0994
G1 X-50.205 Y53.05 E46.11132
G1 X-51.052 Y52.434 E46.14616
G1 X-51.517 Y52.046 E46.1663
G1 X-51.764 Y51.793 E46.17806
G1 X-52.464 Y51.016 E46.21284
G1 X-52.839 Y50.54 E46.233
G1 X-53.032 Y50.233 E46.24506
G1 X-53.552 Y49.33 E46.27972
G1 X-53.82 Y48.785 E46.29992
G1 X-53.94 Y48.46 E46.31144
G1 X-54.264 Y47.466 E46.34621
G1 X-54.413 Y46.878 E46.36639
G1 X-54.464 Y46.524 E46.37828
G1 X-54.574 Y45.484 E46.41307
G1 X-54.6 Y45 E46.42919
G1 X-54.6 Y-44.999 E49.42257
G1 X-54.575 Y-45.482 E49.43865
G1 X-54.465 Y-46.524 E49.4735
G1 X-54.361 Y-47.121 E49.49366
G1 X-54.264 Y-47.467 E49.50561
G1 X-53.94 Y-48.461 E49.54038
G1 X-53.714 Y-49.023 E49.56053
G1 X-53.551 Y-49.332 E49.57215
G1 X-53.031 Y-50.234 E49.60678
G1 X-52.694 Y-50.739 E49.62697
G1 X-52.464 Y-51.016 E49.63895
G1 X-51.764 Y-51.793 E49.67373
G1 X-51.329 Y-52.216 E49.69391
G1 X-51.054 Y-52.432 E49.70554
G1 X-50.207 Y-53.049 E49.74039
G1 X-49.695 Y-53.373 E49.76055
G1 X-49.366 Y-53.535 E49.77274
G1 X-48.416 Y-53.957 E49.80732
G1 X-47.847 Y-54.166 E49.82748
G1 X-47.504 Y-54.253 E49.83925
G1 X-46.477 Y-54.471 E49.87417
G1 X-45.877 Y-54.557 E49.89433
G1 X-45.522 Y-54.571 E49.90614
G1 X45.52 Y-54.572 E52.93421
G1 X46.125 Y-54.532 E52.95438
G1 X46.475 Y-54.472 E52.96619
G1 X47.502 Y-54.254 E53.00111
G1 X48.086 Y-54.089 E53.02129
G1 X48.416 Y-53.957 E53.03312
G1 X49.367 Y-53.534 E53.06773
G1 X49.904 Y-53.252 E53.08791
G1 X50.204 Y-53.051 E53.09992
G1 X51.052 Y-52.434 E53.1348
G1 X51.518 Y-52.045 E53.15499
G1 X51.764 Y-51.793 E53.1667
G1 X52.464 Y-51.016 E53.20149
G1 X52.839 Y-50.54 E53.22164
G1 X53.031 Y-50.234 E53.23366
G1 X53.551 Y-49.332 E53.26828
G1 X53.819 Y-48.788 E53.28845
G1 X53.94 Y-48.461 E53.30005
G1 X54.264 Y-47.467 E53.33482
G1 X54.413 Y-46.879 E53.355
G1 X54.466 Y-46.515 E53.36723
G1 X54.576 Y-45.453 E53.40274
G1 X54.6 Y-44.979 E53.41853
G1 X54.6 Y44.978 E56.41051
G0 F3600 X54.2 Y44.978
G1 F1800 X54.178 Y45.411 E56.42493
G1 X54.068 Y46.473 E56.46044
G1 X53.968 Y47.043 E56.47969
G1 X53.883 Y47.342 E56.49003
G1 X53.559 Y48.336 E56.5248
G1 X53.342 Y48.873 E56.54407
G1 X53.206 Y49.13 E56.55374
G1 X52.686 Y50.033 E56.58839
G1 X52.363 Y50.514 E56.60767
G1 X52.166 Y50.748 E56.61784
G1 X51.466 Y51.525 E56.65262
G1 X51.05 Y51.928 E56.67189
G1 X50.816 Y52.111 E56.68177
G1 X49.969 Y52.727 E56.7166
G1 X49.478 Y53.034 E56.73586
G1 X49.208 Y53.167 E56.74587
G1 X48.256 Y53.591 E56.78053
G1 X47.712 Y53.789 E56.79979
G1 X47.419 Y53.862 E56.80983
G1 X46.392 Y54.08 E56.84475
G1 X45.818 Y54.161 E56.86403
G1 X45.52 Y54.172 E56.87395
G1 X-45.52 Y54.172 E59.90195
G1 X-46.098 Y54.132 E59.92122
G1 X-46.392 Y54.08 E59.93115
G1 X-47.419 Y53.862 E59.96607
G1 X-47.976 Y53.703 E59.98534
G1 X-48.256 Y53.591 E59.99537
G1 X-49.208 Y53.167 E60.03003
G1 X-49.719 Y52.895 E60.04928
G1 X-49.969 Y52.727 E60.0593
G1 X-50.816 Y52.111 E60.09414
G1 X-51.26 Y51.738 E60.11342
G1 X-51.466 Y51.525 E60.12328
G1 X-52.166 Y50.748 E60.15806
G1 X-52.524 Y50.292 E60.17735
G1 X-52.686 Y50.033 E60.18751
G1 X-53.206 Y49.13 E60.22216
G1 X-53.459 Y48.609 E60.24143
G1 X-53.559 Y48.336 E60.2511
G1 X-53.883 Y47.342 E60.28587
G1 X-54.024 Y46.78 E60.30514
G1 X-54.067 Y46.482 E60.31516
G1 X-54.177 Y45.442 E60.34994
G1 X-54.2 Y45 E60.36466
G1 X-54.2 Y-44.999 E63.35804
G1 X-54.177 Y-45.44 E63.37273
G1 X-54.067 Y-46.482 E63.40758
G1 X-53.966 Y-47.052 E63.42683
G1 X-53.883 Y-47.343 E63.43689
G1 X-53.559 Y-48.337 E63.47167
G1 X-53.342 Y-48.874 E63.49093
G1 X-53.205 Y-49.133 E63.50068
G1 X-52.685 Y-50.035 E63.5353
G1 X-52.361 Y-50.515 E63.55457
G1 X-52.166 Y-50.748 E63.56467
G1 X-51.466 Y-51.525 E63.59946
G1 X-51.05 Y-51.928 E63.61872
G1 X-50.819 Y-52.109 E63.62848
G1 X-49.972 Y-52.726 E63.66333
G1 X-49.481 Y-53.034 E63.68261
G1 X-49.204 Y-53.169 E63.69286
G1 X-48.254 Y-53.591 E63.72743
G1 X-47.71 Y-53.789 E63.74669
G1 X-47.421 Y-53.861 E63.7566
G1 X-46.394 Y-54.079 E63.79151
G1 X-45.82 Y-54.16 E63.8108
G1 X-45.522 Y-54.171 E63.82071
G1 X45.52 Y-54.172 E66.84878
G1 X46.098 Y-54.132 E66.86805
G1 X46.392 Y-54.08 E66.87798
G1 X47.419 Y-53.862 E66.9129
G1 X47.976 Y-53.703 E66.93217
G1 X48.254 Y-53.592 E66.94212
G1 X49.205 Y-53.169 E66.97674
G1 X49.717 Y-52.897 E66.99603
G1 X49.969 Y-52.727 E67.00614
G1 X50.817 Y-52.11 E67.04102
G1 X51.261 Y-51.738 E67.06028
G1 X51.466 Y-51.525 E67.07011
G1 X52.166 Y-50.748 E67.1049
G1 X52.524 Y-50.292 E67.12418
G1 X52.685 Y-50.035 E67.13427
G1 X53.205 Y-49.133 E67.1689
G1 X53.459 Y-48.612 E67.18817
G1 X53.559 Y-48.337 E67.19791
G1 X53.883 Y-47.343 E67.23268
G1 X54.024 Y-46.781 E67.25195
G1 X54.068 Y-46.474 E67.26227
G1 X54.178 Y-45.412 E67.29778
G1 X54.2 Y-44.979 E67.3122
G1 X54.2 Y44.978 E70.30418
G0 F3600 X53.8 Y44.978
G1 F1800 X53.78 Y45.37 E70.31723
G1 X53.67 Y46.432 E70.35275
G1 X53.503 Y47.218 E70.37947
G1 X53.179 Y48.212 E70.41424
G1 X52.859 Y48.93 E70.44039
G1 X52.339 Y49.833 E70.47505
G1 X51.869 Y50.48 E70.50165
G1 X51.169 Y51.257 E70.53643
G1 X50.581 Y51.787 E70.56276
G1 X49.734 Y52.403 E70.59759
G1 X49.045 Y52.801 E70.62406
G1 X48.093 Y53.225 E70.65872
G1 X47.336 Y53.471 E70.68519
G1 X46.309 Y53.689 E70.72011
G1 X45.52 Y53.772 E70.7465
G1 X-45.52 Y53.772 E73.7745
G1 X-46.309 Y53.689 E73.80089
G1 X-47.336 Y53.471 E73.83581
G1 X-48.093 Y53.225 E73.86228
G1 X-49.045 Y52.801 E73.89694
G1 X-49.734 Y52.403 E73.92341
G1 X-50.581 Y51.787 E73.95824
G1 X-51.169 Y51.257 E73.98457
G1 X-51.869 Y50.48 E74.01936
G1 X-52.339 Y49.833 E74.04595
G1 X-52.859 Y48.93 E74.08061
G1 X-53.179 Y48.212 E74.10676
G1 X-53.503 Y47.218 E74.14153
G1 X-53.669 Y46.44 E74.16799
G1 X-53.779 Y45.4 E74.20277
G1 X-53.8 Y45 E74.21609
G1 X-53.8 Y-44.999 E77.20947
G1 X-53.779 Y-45.398 E77.22276
G1 X-53.669 Y-46.44 E77.25761
G1 X-53.503 Y-47.219 E77.2841
G1 X-53.179 Y-48.213 E77.31888
G1 X-52.858 Y-48.933 E77.3451
G1 X-52.338 Y-49.835 E77.37972
G1 X-51.869 Y-50.48 E77.40625
G1 X-51.169 Y-51.257 E77.44103
G1 X-50.583 Y-51.785 E77.46727
G1 X-49.736 Y-52.402 E77.50212
G1 X-49.042 Y-52.804 E77.5288
G1 X-48.092 Y-53.226 E77.56337
G1 X-47.338 Y-53.47 E77.58973
G1 X-46.311 Y-53.688 E77.62465
G1 X-45.522 Y-53.771 E77.65104
G1 X45.52 Y-53.772 E80.6791
