;FLAVOR:RepRap
;TIME:19115
;Generated with Cura_SteamEngine 2.3.1
M190 S60
M104 S205
M109 S205
;Sliced at: {day} {date} {time}
;Basic settings: Layer height: 0.2 Walls: 0.8 Fill: {fill_density}
;Print time: {print_time}
;Filament used: {filament_amount}m {filament_weight}g
;Filament cost: {filament_cost}
;M190 S{print_bed_temperature} ;Uncomment to add your own bed temperature line
;M109 S{print_temperature} ;Uncomment to add your own temperature line
G21        ;metric values
G90        ;absolute positioning
M107       ;start with the fan off
G28   ;move to endstops
G92 E0                  ;zero the extruded length
G1 F200 E3              ;extrude 3mm of feed stock
G92 E0                  ;zero the extruded length again
G1 F{travel_speed}
;Put printing message on LCD screen
M117 Printing...

;LAYER_COUNT:483
;LAYER:0
M107
G1 F1500 E-4
G1 Z21
G0 F3600 X-19.635 Y-75.1 Z1.2
;TYPE:SKIRT
G1 Z.2
G1 F1500 E0
G1 F1800 X-19.685 Y-75.774 E0.02248
G1 X-19.646 Y-78.81 E0.12347
G1 X-19.597 Y-79.49 E0.14614
G1 X-19.469 Y-80.158 E0.16876
G1 X-19.263 Y-80.808 E0.19144
G1 X-18.983 Y-81.428 E0.21407
G1 X-18.632 Y-82.012 E0.23673
G1 X-18.216 Y-82.55 E0.25935
G1 X-17.739 Y-83.036 E0.282
G1 X-17.208 Y-83.462 E0.30464
G1 X-16.631 Y-83.824 E0.3273
G1 X-16.015 Y-84.115 E0.34996
G1 X-15.37 Y-84.332 E0.37259
G1 X-14.704 Y-84.472 E0.39523
G1 X-13.846 Y-84.536 E0.42384
G1 X-12.313 Y-84.536 E0.47483
G1 X-11.633 Y-84.496 E0.49749
G1 X-10.963 Y-84.377 E0.52012
G1 X-10.708 Y-84.3 E0.52898
G1 X10.682 Y-84.3 E1.24041
G1 X10.71 Y-84.31 E1.2414
G1 X11.374 Y-84.459 E1.26404
G1 X12.313 Y-84.536 E1.29537
G1 X13.846 Y-84.536 E1.34636
G1 X14.526 Y-84.496 E1.36902
G1 X15.196 Y-84.377 E1.39165
G1 X15.848 Y-84.18 E1.4143
G1 X16.472 Y-83.908 E1.43694
G1 X17.06 Y-83.564 E1.4596
G1 X17.604 Y-83.154 E1.48226
G1 X18.095 Y-82.683 E1.50489
G1 X18.529 Y-82.158 E1.52754
G1 X18.898 Y-81.586 E1.55018
G1 X19.197 Y-80.974 E1.57284
G1 X19.422 Y-80.332 E1.59546
G1 X19.571 Y-79.667 E1.61813
G1 X19.646 Y-78.81 E1.64674
G1 X19.685 Y-75.774 E1.74773
G1 X19.653 Y-75.1 E1.77017
G1 X45.816 Y-75.1 E2.64036
G1 X46.496 Y-75.06 E2.66301
G1 X47.166 Y-74.941 E2.68565
G1 X47.818 Y-74.744 E2.7083
G1 X48.442 Y-74.472 E2.73094
G1 X49.03 Y-74.128 E2.7536
G1 X49.574 Y-73.718 E2.77625
G1 X50.065 Y-73.247 E2.79888
G1 X50.499 Y-72.722 E2.82154
G1 X50.868 Y-72.15 E2.84418
G1 X51.167 Y-71.538 E2.86683
G1 X51.392 Y-70.896 E2.88946
G1 X51.541 Y-70.231 E2.91213
G1 X51.616 Y-69.3 E2.94319
G1 X51.617 Y78.3 E7.85239
G1 X51.577 Y78.98 E7.87504
G1 X51.458 Y79.65 E7.89768
G1 X51.261 Y80.302 E7.92033
G1 X50.989 Y80.926 E7.94297
G1 X50.645 Y81.514 E7.96563
G1 X50.235 Y82.058 E7.98829
G1 X49.764 Y82.549 E8.01092
G1 X49.239 Y82.983 E8.03357
G1 X48.667 Y83.352 E8.05621
G1 X48.055 Y83.651 E8.07887
G1 X47.413 Y83.876 E8.10149
G1 X46.748 Y84.025 E8.12416
G1 X45.817 Y84.1 E8.15522
G1 X-45.816 Y84.1 E11.20295
G1 X-46.496 Y84.06 E11.22561
G1 X-47.166 Y83.941 E11.24824
G1 X-47.818 Y83.744 E11.27089
G1 X-48.442 Y83.472 E11.29353
G1 X-49.03 Y83.128 E11.31619
G1 X-49.574 Y82.718 E11.33885
G1 X-50.065 Y82.247 E11.36148
G1 X-50.499 Y81.722 E11.38413
G1 X-50.868 Y81.15 E11.40677
G1 X-51.167 Y80.538 E11.42943
G1 X-51.392 Y79.896 E11.45206
G1 X-51.541 Y79.231 E11.47472
G1 X-51.616 Y78.3 E11.50579
G1 X-51.617 Y-69.3 E16.41498
G1 X-51.577 Y-69.98 E16.43764
G1 X-51.458 Y-70.65 E16.46027
G1 X-51.261 Y-71.302 E16.48293
G1 X-50.989 Y-71.926 E16.50557
G1 X-50.645 Y-72.514 E16.52822
G1 X-50.235 Y-73.058 E16.55088
G1 X-49.764 Y-73.549 E16.57351
G1 X-49.239 Y-73.983 E16.59617
G1 X-48.667 Y-74.352 E16.61881
G1 X-48.055 Y-74.651 E16.64146
G1 X-47.413 Y-74.876 E16.66409
G1 X-46.748 Y-75.025 E16.68675
G1 X-45.817 Y-75.1 E16.71782
G1 X-19.635 Y-75.1 E17.58864
G0 F3600 X-19.182 Y-74.7
G1 F1800 X-19.252 Y-75.107 E17.60237
G1 X-19.285 Y-75.769 E17.62442
G1 X-19.246 Y-78.805 E17.7254
G1 X-19.197 Y-79.461 E17.74728
G1 X-19.07 Y-80.105 E17.76911
G1 X-18.865 Y-80.729 E17.79096
G1 X-18.586 Y-81.324 E17.81282
G1 X-18.236 Y-81.88 E17.83467
G1 X-17.822 Y-82.39 E17.85652
G1 X-17.349 Y-82.846 E17.87837
G1 X-16.824 Y-83.241 E17.90022
G1 X-16.255 Y-83.569 E17.92207
G1 X-15.65 Y-83.826 E17.94393
G1 X-15.018 Y-84.007 E17.96579
G1 X-14.37 Y-84.111 E17.98762
G1 X-13.846 Y-84.136 E18.00507
G1 X-12.313 Y-84.136 E18.05606
G1 X-11.657 Y-84.096 E18.07792
G1 X-11.011 Y-83.977 E18.09976
G1 X-10.766 Y-83.9 E18.10831
G1 X10.757 Y-83.9 E18.82416
G1 X10.887 Y-83.944 E18.82873
G1 X11.53 Y-84.079 E18.85058
G1 X12.313 Y-84.136 E18.87669
G1 X13.846 Y-84.136 E18.92768
G1 X14.502 Y-84.096 E18.94954
G1 X15.148 Y-83.977 E18.97139
G1 X15.775 Y-83.78 E18.99325
G1 X16.373 Y-83.508 E19.0151
G1 X16.934 Y-83.166 E19.03695
G1 X17.449 Y-82.758 E19.0588
G1 X17.911 Y-82.291 E19.08065
G1 X18.312 Y-81.771 E19.10249
G1 X18.648 Y-81.207 E19.12433
G1 X18.912 Y-80.605 E19.14619
G1 X19.102 Y-79.976 E19.16805
G1 X19.213 Y-79.329 E19.18988
G1 X19.246 Y-78.805 E19.20734
G1 X19.285 Y-75.769 E19.30833
G1 X19.253 Y-75.113 E19.33017
G1 X19.182 Y-74.7 E19.34411
G1 X45.816 Y-74.7 E20.22996
G1 X46.472 Y-74.66 E20.25182
G1 X47.118 Y-74.541 E20.27367
G1 X47.745 Y-74.344 E20.29553
G1 X48.343 Y-74.072 E20.31738
G1 X48.904 Y-73.73 E20.33923
G1 X49.419 Y-73.322 E20.36108
G1 X49.881 Y-72.855 E20.38293
G1 X50.282 Y-72.335 E20.40477
G1 X50.618 Y-71.771 E20.42661
G1 X50.882 Y-71.169 E20.44847
G1 X51.072 Y-70.54 E20.47033
G1 X51.183 Y-69.893 E20.49216
G1 X51.216 Y-69.3 E20.51191
G1 X51.217 Y78.3 E25.42111
G1 X51.177 Y78.956 E25.44297
G1 X51.058 Y79.602 E25.46482
G1 X50.861 Y80.229 E25.48668
G1 X50.589 Y80.827 E25.50853
G1 X50.247 Y81.388 E25.53038
G1 X49.839 Y81.903 E25.55223
G1 X49.372 Y82.365 E25.57408
G1 X48.852 Y82.766 E25.59592
G1 X48.288 Y83.102 E25.61776
G1 X47.686 Y83.366 E25.63962
G1 X47.057 Y83.556 E25.66147
G1 X46.41 Y83.667 E25.68331
G1 X45.817 Y83.7 E25.70306
G1 X-45.816 Y83.7 E28.75079
G1 X-46.472 Y83.66 E28.77265
G1 X-47.118 Y83.541 E28.79449
G1 X-47.745 Y83.344 E28.81635
G1 X-48.343 Y83.072 E28.8382
G1 X-48.904 Y82.73 E28.86006
G1 X-49.419 Y82.322 E28.88191
G1 X-49.881 Y81.855 E28.90376
G1 X-50.282 Y81.335 E28.9256
G1 X-50.618 Y80.771 E28.94743
G1 X-50.882 Y80.169 E28.9693
G1 X-51.072 Y79.54 E28.99115
G1 X-51.183 Y78.893 E29.01299
G1 X-51.216 Y78.3 E29.03274
G1 X-51.217 Y-69.3 E33.94193
G1 X-51.177 Y-69.956 E33.96379
G1 X-51.058 Y-70.602 E33.98564
G1 X-50.861 Y-71.229 E34.0075
G1 X-50.589 Y-71.827 E34.02935
G1 X-50.247 Y-72.388 E34.0512
G1 X-49.839 Y-72.903 E34.07306
G1 X-49.372 Y-73.365 E34.09491
G1 X-48.852 Y-73.766 E34.11675
G1 X-48.288 Y-74.102 E34.13858
G1 X-47.686 Y-74.366 E34.16044
G1 X-47.057 Y-74.556 E34.1823
G1 X-46.41 Y-74.667 E34.20413
G1 X-45.817 Y-74.7 E34.22389
G1 X-19.182 Y-74.7 E35.10977
G0 F3600 X-18.679 Y-74.3
G1 F1800 X-18.805 Y-74.809 E35.12721
G1 X-18.878 Y-75.437 E35.14824
G1 X-18.885 Y-75.764 E35.15912
G1 X-18.846 Y-78.8 E35.2601
G1 X-18.798 Y-79.431 E35.28115
G1 X-18.67 Y-80.05 E35.30217
G1 X-18.466 Y-80.648 E35.32319
G1 X-18.188 Y-81.216 E35.34422
G1 X-17.84 Y-81.744 E35.36526
G1 X-17.429 Y-82.224 E35.38627
G1 X-16.96 Y-82.648 E35.4073
G1 X-16.442 Y-83.009 E35.4283
G1 X-15.882 Y-83.303 E35.44934
G1 X-15.289 Y-83.523 E35.47038
G1 X-14.674 Y-83.667 E35.49138
G1 X-13.846 Y-83.736 E35.51902
G1 X-12.313 Y-83.736 E35.57001
G1 X-11.682 Y-83.696 E35.59104
G1 X-11.061 Y-83.577 E35.61207
G1 X-10.826 Y-83.5 E35.62029
G1 X10.827 Y-83.5 E36.34047
G1 X11.062 Y-83.577 E36.3487
G1 X11.683 Y-83.696 E36.36973
G1 X12.313 Y-83.736 E36.39072
G1 X13.846 Y-83.736 E36.44171
G1 X14.477 Y-83.696 E36.46274
G1 X15.098 Y-83.577 E36.48377
G1 X15.698 Y-83.38 E36.50478
G1 X16.27 Y-83.109 E36.52583
G1 X16.802 Y-82.769 E36.54683
G1 X17.287 Y-82.363 E36.56786
G1 X17.717 Y-81.9 E36.58888
G1 X18.086 Y-81.386 E36.60993
G1 X18.386 Y-80.83 E36.63094
G1 X18.614 Y-80.241 E36.65194
G1 X18.766 Y-79.627 E36.67298
G1 X18.846 Y-78.8 E36.70062
G1 X18.885 Y-75.764 E36.8016
G1 X18.853 Y-75.133 E36.82262
G1 X18.741 Y-74.511 E36.84364
G1 X18.675 Y-74.3 E36.85099
G1 X45.816 Y-74.3 E37.7537
G1 X46.447 Y-74.26 E37.77473
G1 X47.068 Y-74.141 E37.79576
G1 X47.668 Y-73.944 E37.81677
G1 X48.24 Y-73.673 E37.83782
G1 X48.772 Y-73.333 E37.85882
G1 X49.257 Y-72.927 E37.87986
G1 X49.687 Y-72.464 E37.90087
G1 X50.056 Y-71.95 E37.92192
G1 X50.356 Y-71.394 E37.94293
G1 X50.584 Y-70.805 E37.96394
G1 X50.736 Y-70.191 E37.98498
G1 X50.816 Y-69.3 E38.01473
G1 X50.817 Y78.3 E42.92393
G1 X50.777 Y78.931 E42.94496
G1 X50.658 Y79.552 E42.96599
G1 X50.461 Y80.152 E42.98699
G1 X50.19 Y80.724 E43.00804
G1 X49.85 Y81.256 E43.02904
G1 X49.444 Y81.741 E43.05008
G1 X48.981 Y82.171 E43.07109
G1 X48.467 Y82.54 E43.09214
G1 X47.911 Y82.84 E43.11315
G1 X47.322 Y83.068 E43.13416
G1 X46.708 Y83.22 E43.1552
G1 X45.817 Y83.3 E43.18495
G1 X-45.816 Y83.3 E46.23268
G1 X-46.447 Y83.26 E46.25371
G1 X-47.068 Y83.141 E46.27474
G1 X-47.668 Y82.944 E46.29574
G1 X-48.24 Y82.673 E46.31679
G1 X-48.772 Y82.333 E46.33779
G1 X-49.257 Y81.927 E46.35883
G1 X-49.687 Y81.464 E46.37985
G1 X-50.056 Y80.95 E46.40089
G1 X-50.356 Y80.394 E46.4219
G1 X-50.584 Y79.805 E46.44291
G1 X-50.736 Y79.191 E46.46395
G1 X-50.816 Y78.3 E46.4937
G1 X-50.817 Y-69.3 E51.4029
G1 X-50.777 Y-69.931 E51.42393
G1 X-50.658 Y-70.552 E51.44496
G1 X-50.461 Y-71.152 E51.46596
G1 X-50.19 Y-71.724 E51.48701
G1 X-49.85 Y-72.256 E51.50801
G1 X-49.444 Y-72.741 E51.52905
G1 X-48.981 Y-73.171 E51.55007
G1 X-48.467 Y-73.54 E51.57111
G1 X-47.911 Y-73.84 E51.59212
G1 X-47.322 Y-74.068 E51.61313
G1 X-46.708 Y-74.22 E51.63417
G1 X-45.817 Y-74.3 E51.66392
G1 X-18.679 Y-74.3 E52.56654
G0 F3600 X-18.113 Y-73.9
G1 F1800 X-18.151 Y-73.978 E52.56942
G1 X-18.34 Y-74.554 E52.58959
G1 X-18.452 Y-75.15 E52.60976
G1 X-18.485 Y-75.759 E52.63004
G1 X-18.446 Y-78.795 E52.73103
G1 X-18.398 Y-79.4 E52.75121
G1 X-18.271 Y-79.992 E52.77135
G1 X-18.067 Y-80.563 E52.79152
G1 X-17.79 Y-81.103 E52.8117
G1 X-17.445 Y-81.601 E52.83185
G1 X-17.037 Y-82.049 E52.85201
G1 X-16.573 Y-82.44 E52.87219
G1 X-16.062 Y-82.767 E52.89237
G1 X-15.513 Y-83.023 E52.91251
G1 X-14.935 Y-83.205 E52.93267
G1 X-14.337 Y-83.31 E52.95286
G1 X-13.846 Y-83.336 E52.96922
G1 X-12.313 Y-83.336 E53.0202
G1 X-11.708 Y-83.296 E53.04037
G1 X-11.114 Y-83.177 E53.06052
G1 X-10.889 Y-83.1 E53.06843
G1 X10.889 Y-83.1 E53.79277
G1 X11.234 Y-83.208 E53.80479
G1 X11.831 Y-83.311 E53.82494
G1 X12.313 Y-83.336 E53.841
G1 X13.846 Y-83.336 E53.89198
G1 X14.451 Y-83.296 E53.91215
G1 X15.045 Y-83.177 E53.9323
G1 X15.619 Y-82.981 E53.95247
G1 X16.162 Y-82.71 E53.97266
G1 X16.665 Y-82.371 E53.99283
G1 X17.118 Y-81.969 E54.01298
G1 X17.515 Y-81.511 E54.03313
G1 X17.848 Y-81.004 E54.05331
G1 X18.112 Y-80.458 E54.07348
G1 X18.301 Y-79.882 E54.09364
G1 X18.413 Y-79.286 E54.11381
G1 X18.446 Y-78.795 E54.13018
G1 X18.485 Y-75.759 E54.23117
G1 X18.452 Y-75.154 E54.25132
G1 X18.341 Y-74.558 E54.27148
G1 X18.152 Y-73.982 E54.29165
G1 X18.113 Y-73.9 E54.29467
G1 X45.816 Y-73.9 E55.21607
G1 X46.421 Y-73.86 E55.23624
G1 X47.015 Y-73.741 E55.25639
G1 X47.589 Y-73.545 E55.27656
G1 X48.132 Y-73.274 E55.29675
G1 X48.635 Y-72.935 E55.31692
G1 X49.088 Y-72.533 E55.33706
G1 X49.485 Y-72.075 E55.35722
G1 X49.818 Y-71.568 E55.3774
G1 X50.082 Y-71.022 E55.39757
G1 X50.271 Y-70.446 E55.41773
G1 X50.383 Y-69.85 E55.4379
G1 X50.416 Y-69.3 E55.45623
G1 X50.417 Y78.3 E60.36542
G1 X50.377 Y78.905 E60.38559
G1 X50.258 Y79.499 E60.40574
G1 X50.062 Y80.073 E60.42591
G1 X49.791 Y80.616 E60.4461
G1 X49.452 Y81.118 E60.46625
G1 X49.05 Y81.572 E60.48641
G1 X48.592 Y81.969 E60.50657
G1 X48.085 Y82.302 E60.52675
G1 X47.539 Y82.566 E60.54692
G1 X46.963 Y82.755 E60.56708
G1 X46.367 Y82.867 E60.58725
G1 X45.817 Y82.9 E60.60558
G1 X-45.816 Y82.9 E63.6533
G1 X-46.421 Y82.86 E63.67347
G1 X-47.015 Y82.741 E63.69362
G1 X-47.589 Y82.545 E63.71379
G1 X-48.132 Y82.274 E63.73398
G1 X-48.635 Y81.935 E63.75415
G1 X-49.088 Y81.533 E63.7743
G1 X-49.485 Y81.075 E63.79446
G1 X-49.818 Y80.568 E63.81463
G1 X-50.082 Y80.022 E63.8348
G1 X-50.271 Y79.446 E63.85497
G1 X-50.383 Y78.85 E63.87514
G1 X-50.416 Y78.3 E63.89346
G1 X-50.417 Y-69.3 E68.80266
G1 X-50.377 Y-69.905 E68.82282
G1 X-50.258 Y-70.499 E68.84297
G1 X-50.062 Y-71.073 E68.86315
G1 X-49.791 Y-71.616 E68.88333
G1 X-49.452 Y-72.118 E68.90348
G1 X-49.05 Y-72.572 E68.92365
G1 X-48.592 Y-72.969 E68.94381
G1 X-48.085 Y-73.302 E68.96398
G1 X-47.539 Y-73.566 E68.98415
G1 X-46.963 Y-73.755 E69.00432
G1 X-46.367 Y-73.867 E69.02449
G1 X-45.817 Y-73.9 E69.04281
G1 X-18.113 Y-73.9 E69.96425
G0 F3600 X-17.452 Y-73.5
G1 F1800 X-17.636 Y-73.811 E69.97627
G1 X-17.861 Y-74.345 E69.99554
G1 X-18.009 Y-74.905 E70.01481
G1 X-18.085 Y-75.754 E70.04316
G1 X-18.046 Y-78.79 E70.14414
G1 X-17.998 Y-79.367 E70.1634
G1 X-17.872 Y-79.933 E70.18269
G1 X-17.669 Y-80.475 E70.20194
G1 X-17.393 Y-80.985 E70.22123
G1 X-17.05 Y-81.451 E70.24047
G1 X-16.646 Y-81.867 E70.25976
G1 X-16.189 Y-82.222 E70.279
G1 X-15.687 Y-82.511 E70.29827
G1 X-15.15 Y-82.729 E70.31755
G1 X-14.588 Y-82.87 E70.33682
G1 X-13.846 Y-82.936 E70.36159
G1 X-12.313 Y-82.936 E70.41258
G1 X-11.735 Y-82.896 E70.43185
G1 X-11.168 Y-82.777 E70.45112
G1 X-10.954 Y-82.7 E70.45869
G1 X10.943 Y-82.7 E71.18698
G1 X11.403 Y-82.836 E71.20294
G1 X11.976 Y-82.922 E71.22221
G1 X12.313 Y-82.936 E71.23343
G1 X13.846 Y-82.936 E71.28442
G1 X14.424 Y-82.896 E71.30369
G1 X14.991 Y-82.777 E71.32296
G1 X15.536 Y-82.581 E71.34222
G1 X16.049 Y-82.312 E71.36148
G1 X16.52 Y-81.975 E71.38075
G1 X16.94 Y-81.576 E71.40001
G1 X17.302 Y-81.123 E71.4193
G1 X17.597 Y-80.625 E71.43855
G1 X17.822 Y-80.091 E71.45783
G1 X17.97 Y-79.531 E71.47709
G1 X18.046 Y-78.79 E71.50187
G1 X18.085 Y-75.754 E71.60285
G1 X18.052 Y-75.176 E71.62211
G1 X17.94 Y-74.607 E71.6414
G1 X17.751 Y-74.06 E71.66065
G1 X17.489 Y-73.543 E71.67992
G1 X17.459 Y-73.5 E71.68167
G1 X45.816 Y-73.5 E72.62482
G1 X46.394 Y-73.46 E72.64409
G1 X46.961 Y-73.341 E72.66336
G1 X47.506 Y-73.145 E72.68263
G1 X48.019 Y-72.876 E72.70189
G1 X48.49 Y-72.539 E72.72116
G1 X48.91 Y-72.14 E72.74042
G1 X49.272 Y-71.687 E72.75971
G1 X49.567 Y-71.189 E72.77896
G1 X49.792 Y-70.655 E72.79823
G1 X49.94 Y-70.095 E72.8175
G1 X50.016 Y-69.3 E72.84406
G1 X50.017 Y78.3 E77.75326
G1 X49.977 Y78.878 E77.77253
G1 X49.858 Y79.445 E77.7918
G1 X49.662 Y79.99 E77.81106
G1 X49.393 Y80.503 E77.83033
G1 X49.056 Y80.974 E77.84959
G1 X48.657 Y81.394 E77.86886
G1 X48.204 Y81.756 E77.88814
G1 X47.706 Y82.051 E77.9074
G1 X47.172 Y82.275 E77.92666
G1 X46.612 Y82.424 E77.94593
G1 X45.817 Y82.5 E77.97249
G1 X-45.816 Y82.5 E81.02022
G1 X-46.394 Y82.46 E81.03949
G1 X-46.961 Y82.341 E81.05876
G1 X-47.506 Y82.145 E81.07802
G1 X-48.019 Y81.876 E81.09729
G1 X-48.49 Y81.539 E81.11655
G1 X-48.91 Y81.14 E81.13582
G1 X-49.272 Y80.687 E81.1551
G1 X-49.567 Y80.189 E81.17436
G1 X-49.792 Y79.655 E81.19363
G1 X-49.94 Y79.095 E81.21289
G1 X-50.016 Y78.3 E81.23946
G1 X-50.017 Y-69.3 E86.14865
G1 X-49.977 Y-69.878 E86.16792
G1 X-49.858 Y-70.445 E86.18719
G1 X-49.662 Y-70.99 E86.20646
G1 X-49.393 Y-71.503 E86.22572
G1 X-49.056 Y-71.974 E86.24498
G1 X-48.657 Y-72.394 E86.26425
G1 X-48.204 Y-72.756 E86.28354
G1 X-47.706 Y-73.051 E86.30279
G1 X-47.172 Y-73.275 E86.32205
G1 X-46.612 Y-73.424 E86.34132
G1 X-45.817 Y-73.5 E86.36789
G1 X-17.452 Y-73.5 E87.31131
G1 F1500 E83.31131
G1 Z1.2
G0 F3600 X-16.643 Y-73.1 Z1.2
G1 Z.2
G1 F1500 E87.31131
G1 F1800 X-16.791 Y-73.252 E87.31837
G1 X-17.115 Y-73.698 E87.3367
G1 X-17.37 Y-74.186 E87.35501
G1 X-17.553 Y-74.706 E87.37335
G1 X-17.658 Y-75.247 E87.39168
G1 X-17.685 Y-75.749 E87.4084
G1 X-17.646 Y-78.785 E87.50939
G1 X-17.599 Y-79.334 E87.52771
G1 X-17.473 Y-79.87 E87.54603
G1 X-17.271 Y-80.383 E87.56436
G1 X-16.996 Y-80.861 E87.5827
G1 X-16.656 Y-81.294 E87.60102
G1 X-16.257 Y-81.674 E87.61934
G1 X-15.806 Y-81.991 E87.63768
G1 X-15.315 Y-82.241 E87.656
G1 X-14.793 Y-82.416 E87.67431
G1 X-14.251 Y-82.514 E87.69263
G1 X-13.846 Y-82.536 E87.70612
G1 X-12.313 Y-82.536 E87.75711
G1 X-11.763 Y-82.496 E87.77545
G1 X-11.225 Y-82.377 E87.79378
G1 X-11.023 Y-82.3 E87.80097
G1 X11.002 Y-82.3 E88.53352
G1 X11.038 Y-82.316 E88.53483
G1 X11.569 Y-82.462 E88.55315
G1 X12.313 Y-82.536 E88.57802
G1 X13.846 Y-82.536 E88.62901
